%
(Header)
(Generated by gcodetools from Inkscape.)
(Using default header. To add your own header create file "header" in the output dir.)
M3
(Header end.)
G21 (All units in mm)

(Start cutting path id: text57)
(Change tool to Default tool)

G00 Z100.000000
G00 X56.061532 Y99.134195

G01 Z-0.625000 F100.0(Penetrate)
G01 X42.042189 Y99.134195 Z-0.625000 F400.000000
G01 X32.341600 Y71.560605 Z-0.625000
G01 X-10.447296 Y71.560605 Z-0.625000
G01 X-20.147884 Y99.134195 Z-0.625000
G01 X-33.502804 Y99.134195 Z-0.625000
G01 X2.508969 Y0.201484 Z-0.625000
G01 X20.049759 Y0.201484 Z-0.625000
G01 X56.061532 Y99.134195 Z-0.625000
G00 Z100.000000

(End cutting path id: text57)


(Start cutting path id: text57)
(Change tool to Default tool)

G00 Z100.000000
G00 X28.288615 Y60.265400

G01 Z-0.625000 F100.0(Penetrate)
G01 X10.947152 Y11.696016 Z-0.625000 F400.000000
G01 X-6.460753 Y60.265400 Z-0.625000
G01 X28.288615 Y60.265400 Z-0.625000
G00 Z100.000000

(End cutting path id: text57)


(Footer)
M5
G00 X0.0000 Y0.0000
M2
(Using default footer. To add your own footer create file "footer" in the output dir.)
(end)
%