%
(Header)
(Generated by gcodetools from Inkscape.)
(Using default header. To add your own header create file "header" in the output dir.)
M3
(Header end.)
G21 (All units in mm)

(Start cutting path id: text113)
(Change tool to Default tool)

G00 Z100.000000
G00 X41.314920 Y68.649036

G01 Z-0.625000 F100.0(Penetrate)
G03 X40.551110 Y75.858846 Z-0.625000 I-34.409585 J-0.000000 F400.000000
G03 X38.519377 Y81.694902 Z-0.625000 I-24.443139 J-5.237816
G03 X35.183463 Y86.910798 Z-0.625000 I-25.264599 J-12.483683
G03 X30.998036 Y91.013379 Z-0.625000 I-19.649131 J-15.859653
G03 X25.091647 Y94.782885 Z-0.625000 I-22.137930 J-28.175549
G03 X18.684335 Y97.270070 Z-0.625000 I-15.618287 J-30.738120
G03 X11.951291 Y98.573259 Z-0.625000 I-11.312358 J-40.401276
G03 X1.711396 Y99.133765 Z-0.625000 I-10.239895 J-93.256185
G01 X-33.432571 Y99.133765 Z-0.625000
G01 X-33.432571 Y0.025115 Z-0.625000
G01 X-4.079371 Y0.025115 Z-0.625000
G03 X6.750391 Y0.291260 Z-0.625000 I0.000000 J220.471446
G03 X12.161402 Y0.823841 Z-0.625000 I-2.728116 J55.471726
G03 X17.415054 Y2.051512 Z-0.625000 I-4.798357 J32.388889
G03 X22.478286 Y4.151869 Z-0.625000 I-10.376550 J32.167295
G03 X27.351709 Y7.607554 Z-0.625000 I-10.396808 J19.826475
G03 X30.398991 Y11.540089 Z-0.625000 I-10.589197 J11.352383
G03 X32.172205 Y16.177386 Z-0.625000 I-15.646437 J8.640570
G03 X32.861731 Y22.256337 Z-0.625000 I-26.451656 J6.078951
G03 X31.878019 Y28.994461 Z-0.625000 I-23.568900 J-0.000000
G03 X29.267461 Y34.303795 Z-0.625000 I-17.049232 J-5.086512
G03 X25.179559 Y38.645612 Z-0.625000 I-19.336815 J-14.110648
G03 X19.682743 Y42.224500 Z-0.625000 I-18.448194 J-22.323864
G01 X19.682743 Y42.756984 Z-0.625000
G03 X28.922512 Y46.193132 Z-0.625000 I-6.480776 J31.567648
G03 X35.524153 Y51.609537 Z-0.625000 I-11.795873 J21.108403
G03 X39.708342 Y58.928694 Z-0.625000 I-16.760149 J14.436959
G03 X41.314920 Y68.649036 Z-0.625000 I-28.602386 J9.720342
G01 X41.314920 Y68.649036 Z-0.625000
G00 Z100.000000

(End cutting path id: text113)


(Start cutting path id: text113)
(Change tool to Default tool)

G00 Z100.000000
G00 X27.603448 Y69.181520

G01 Z-0.625000 F100.0(Penetrate)
G02 X27.055184 Y63.322677 Z-0.625000 I-31.578430 J0.000000 F400.000000
G02 X25.806313 Y59.663362 Z-0.625000 I-13.397462 J2.529591
G02 X23.505831 Y56.634372 Z-0.625000 I-9.550283 J4.865238
G02 X19.283380 Y53.672913 Z-0.625000 I-13.329644 J14.514501
G02 X15.978262 Y52.377367 Z-0.625000 I-7.706197 J14.795902
G02 X11.495796 Y51.542976 Z-0.625000 I-7.260038 J26.544519
G02 X6.960483 Y51.167358 Z-0.625000 I-7.712927 J65.559925
G02 X0.446746 Y51.010492 Z-0.625000 I-6.513737 J135.160134
G01 X-20.253583 Y51.010492 Z-0.625000
G01 X-20.253583 Y87.885033 Z-0.625000
G01 X-2.814721 Y87.885033 Z-0.625000
G02 X5.817664 Y87.621848 Z-0.625000 I0.000000 J-141.701506
G02 X11.362675 Y87.019746 Z-0.625000 I-3.600486 J-58.992588
G02 X16.692681 Y85.603532 Z-0.625000 I-4.959791 J-29.404464
G02 X20.414909 Y83.691719 Z-0.625000 I-5.923942 J-16.113123
G02 X23.767882 Y80.766808 Z-0.625000 I-11.688219 J-16.783087
G02 X25.872874 Y77.767830 Z-0.625000 I-10.199549 J-9.397337
G02 X27.091310 Y74.314605 Z-0.625000 I-11.615029 J-6.039815
G02 X27.603448 Y69.181520 Z-0.625000 I-25.467999 J-5.133085
G01 X27.603448 Y69.181520 Z-0.625000
G00 Z100.000000

(End cutting path id: text113)


(Start cutting path id: text113)
(Change tool to Default tool)

G00 Z100.000000
G00 X19.150259 Y23.986911

G01 Z-0.625000 F100.0(Penetrate)
G02 X18.805960 Y20.471946 Z-0.625000 I-18.114398 J-0.000000 F400.000000
G02 X17.952169 Y17.929901 Z-0.625000 I-10.244417 J2.026368
G02 X16.436240 Y15.763776 Z-0.625000 I-7.562833 J3.679217
G02 X14.091657 Y13.936269 Z-0.625000 I-7.644424 J7.389612
G02 X10.833041 Y12.552386 Z-0.625000 I-7.375938 J12.839591
G02 X6.503755 Y11.739771 Z-0.625000 I-6.373900 J22.018926
G02 X2.036972 Y11.412568 Z-0.625000 I-7.512892 J71.909077
G02 X-4.545295 Y11.273847 Z-0.625000 I-6.582267 J156.093693
G01 X-20.253583 Y11.273847 Z-0.625000
G01 X-20.253583 Y39.894881 Z-0.625000
G01 X-3.214084 Y39.894881 Z-0.625000
G02 X2.960801 Y39.707304 Z-0.625000 I0.000000 J-101.730121
G02 X6.636877 Y39.295836 Z-0.625000 I-2.213843 J-36.405410
G02 X10.165522 Y38.293410 Z-0.625000 I-3.389996 J-18.644956
G02 X13.426052 Y36.633414 Z-0.625000 I-6.882883 J-17.551348
G02 X16.130682 Y34.284440 Z-0.625000 I-6.577969 J-10.305489
G02 X17.819048 Y31.508252 Z-0.625000 I-7.637032 J-6.546028
G02 X18.776898 Y28.238674 Z-0.625000 I-14.349020 J-5.978759
G02 X19.150259 Y23.986911 Z-0.625000 I-24.022456 J-4.251763
G01 X19.150259 Y23.986911 Z-0.625000
G00 Z100.000000

(End cutting path id: text113)


(Footer)
M5
G00 X0.0000 Y0.0000
M2
(Using default footer. To add your own footer create file "footer" in the output dir.)
(end)
%