%
(Header)
(Generated by gcodetools from Inkscape.)
(Using default header. To add your own header create file "header" in the output dir.)
M3
(Header end.)
G21 (All units in mm)

(Start cutting path id: text232)
(Change tool to Default tool)

G00 Z100.000000
G00 X46.282052 Y90.677596

G01 Z-0.625000 F100.0(Penetrate)
G02 X42.739851 Y92.247374 Z-0.625000 I135.956251 J311.566342 F400.000000
G02 X39.825167 Y93.583194 Z-0.625000 I95.528548 J212.285666
G03 X36.936151 Y94.818031 Z-0.625000 I-16.357261 J-34.272356
G03 X32.335181 Y96.424223 Z-0.625000 I-32.402681 J-85.425250
G03 X28.364155 Y97.519101 Z-0.625000 I-18.609517 J-59.746348
G03 X23.747524 Y98.490426 Z-0.625000 I-19.201377 J-79.805724
G03 X19.139111 Y99.148367 Z-0.625000 I-8.520139 J-43.209274
G03 X13.610215 Y99.394390 Z-0.625000 I-5.528896 J-62.002628
G03 X3.279009 Y98.610948 Z-0.625000 I-0.000000 J-68.510239
G03 X-5.437595 Y96.488792 Z-0.625000 I7.745712 J-50.777448
G03 X-13.430693 Y92.669127 Z-0.625000 I13.222368 J-37.942444
G03 X-20.288430 Y87.255447 Z-0.625000 I20.636155 J-33.191020
G03 X-25.627299 Y80.567367 Z-0.625000 I25.793665 J-26.065173
G03 X-29.973757 Y71.694354 Z-0.625000 I41.500193 J-25.829993
G03 X-32.488398 Y62.029838 Z-0.625000 I48.149522 J-17.687581
G03 X-33.460474 Y49.676378 Z-0.625000 I78.009806 J-12.353460
G03 X-32.539940 Y37.955780 Z-0.625000 I75.075855 J0.000000
G03 X-30.102894 Y28.433227 Z-0.625000 I51.835952 J8.192916
G03 X-25.877249 Y19.614754 Z-0.625000 I44.970481 J16.127345
G03 X-20.417567 Y12.613859 Z-0.625000 I33.585894 J20.562792
G03 X-13.748475 Y7.167804 Z-0.625000 I27.759604 J27.187240
G03 X-5.631301 Y3.057670 Z-0.625000 I23.549990 J36.438838
G03 X3.246717 Y0.647629 Z-0.625000 I16.935607 J44.829481
G03 X13.674784 Y-0.235346 Z-0.625000 I10.428067 J61.137009
G03 X21.367204 Y0.229645 Z-0.625000 I0.000000 J63.860998
G03 X29.106739 Y1.637155 Z-0.625000 I-8.015187 J66.056045
G03 X36.678364 Y3.992971 Z-0.625000 I-14.444562 J59.770581
G03 X46.282052 Y8.223177 Z-0.625000 I-38.558628 J100.554857
G01 X46.282052 Y23.396857 Z-0.625000
G01 X45.313519 Y23.396857 Z-0.625000
G02 X36.985724 Y17.399048 Z-0.625000 I-45.190110 J53.964882
G02 X29.558721 Y13.711529 Z-0.625000 I-24.064218 J39.144456
G02 X21.598105 Y11.465427 Z-0.625000 I-15.705554 J40.433462
G02 X12.835389 Y10.676794 Z-0.625000 I-8.762716 J48.288170
G02 X5.665217 Y11.321769 Z-0.625000 I0.000000 J40.177819
G02 X-0.336656 Y13.065841 Z-0.625000 I5.404435 J29.797428
G02 X-5.735487 Y15.988938 Z-0.625000 I9.872611 J24.681522
G02 X-10.732240 Y20.362121 Z-0.625000 I17.864662 J25.453190
G02 X-14.543938 Y25.586498 Z-0.625000 I21.022372 J19.340587
G02 X-17.705676 Y32.630202 Z-0.625000 I35.395877 J20.119763
G02 X-19.473781 Y40.102293 Z-0.625000 I40.796398 J13.598799
G02 X-20.159292 Y49.676378 Z-0.625000 I66.514701 J9.574085
G02 X-19.386294 Y59.674678 Z-0.625000 I65.047772 J0.000000
G02 X-17.447400 Y67.109966 Z-0.625000 I37.736977 J-5.870198
G02 X-14.088807 Y74.041265 Z-0.625000 I41.138300 J-15.654394
G02 X-10.344827 Y78.990634 Z-0.625000 I24.527293 J-14.663055
G02 X-5.420876 Y83.166777 Z-0.625000 I21.409096 J-20.251845
G02 X0.179895 Y86.093207 Z-0.625000 I15.791959 J-23.400813
G02 X6.353804 Y87.773330 Z-0.625000 I12.319599 J-33.086920
G02 X12.964527 Y88.353117 Z-0.625000 I6.610723 J-37.397801
G02 X22.042316 Y87.530066 Z-0.625000 I-0.000000 J-50.473009
G02 X30.268978 Y85.189244 Z-0.625000 I-7.993238 J-43.718124
G02 X37.912728 Y81.332927 Z-0.625000 I-16.705792 J-42.616811
G02 X45.378088 Y75.697623 Z-0.625000 I-29.063491 J-46.264330
G01 X46.282052 Y75.697623 Z-0.625000
G01 X46.282052 Y90.677596 Z-0.625000
G00 Z100.000000

(End cutting path id: text232)


(Footer)
M5
G00 X0.0000 Y0.0000
M2
(Using default footer. To add your own footer create file "footer" in the output dir.)
(end)
%