%
(Header)
(Generated by gcodetools from Inkscape.)
(Using default header. To add your own header create file "header" in the output dir.)
M3
(Header end.)
G21 (All units in mm)

(Start cutting path id: text334)
(Change tool to Default tool)

G00 Z100.000000
G00 X50.511804 Y49.647955

G01 Z-0.625000 F100.0(Penetrate)
G03 X48.949174 Y62.756654 Z-0.625000 I-55.764892 J0.000000 F400.000000
G03 X44.591653 Y74.126782 Z-0.625000 I-46.112343 J-11.152170
G03 X37.583769 Y84.020078 Z-0.625000 I-42.446208 J-22.637977
G03 X28.959793 Y91.155532 Z-0.625000 I-30.206498 J-27.728621
G03 X21.913871 Y94.703847 Z-0.625000 I-23.917769 J-38.724005
G03 X13.793563 Y97.208720 Z-0.625000 I-19.576910 J-49.049841
G03 X5.415157 Y98.496460 Z-0.625000 I-13.663077 J-60.995879
G03 X-8.157559 Y99.071240 Z-0.625000 I-13.572716 J-159.964142
G01 X-33.168535 Y99.071240 Z-0.625000
G01 X-33.168535 Y0.025115 Z-0.625000
G01 X-8.423634 Y0.025115 Z-0.625000
G03 X5.995501 Y0.690476 Z-0.625000 I0.000000 J156.572244
G03 X14.591786 Y2.153709 Z-0.625000 I-5.262146 J56.896950
G03 X22.934537 Y4.787493 Z-0.625000 I-14.622230 J60.847344
G03 X29.092830 Y7.874304 Z-0.625000 I-14.238051 J36.091805
G03 X38.068652 Y15.257050 Z-0.625000 I-23.808732 J38.093969
G03 X44.857727 Y24.703498 Z-0.625000 I-32.846835 J30.769565
G03 X48.940675 Y35.609223 Z-0.625000 I-38.004779 J20.445610
G03 X50.511804 Y49.647955 Z-0.625000 I-61.935582 J14.038732
G01 X50.511804 Y49.647955 Z-0.625000
G00 Z100.000000

(End cutting path id: text334)


(Start cutting path id: text334)
(Change tool to Default tool)

G00 Z100.000000
G00 X36.742464 Y49.448399

G01 Z-0.625000 F100.0(Penetrate)
G02 X35.580019 Y38.086149 Z-0.625000 I-56.111025 J-0.000000 F400.000000
G02 X32.684832 Y29.825426 Z-0.625000 I-32.274334 J6.673676
G02 X27.660773 Y22.764351 Z-0.625000 I-26.173081 J13.304651
G02 X20.578455 Y17.253420 Z-0.625000 I-22.678070 J21.838143
G02 X14.534378 Y14.444152 Z-0.625000 I-20.196481 J35.545799
G02 X8.139486 Y12.663640 Z-0.625000 I-14.038358 J38.045985
G02 X1.515648 Y11.718283 Z-0.625000 I-11.512731 J56.988024
G02 X-7.625411 Y11.333269 Z-0.625000 I-9.141059 J108.321548
G01 X-19.997862 Y11.333269 Z-0.625000
G01 X-19.997862 Y87.763086 Z-0.625000
G01 X-7.625411 Y87.763086 Z-0.625000
G02 X1.847623 Y87.364328 Z-0.625000 I0.000000 J-112.721841
G02 X8.937709 Y86.366196 Z-0.625000 I-5.402168 J-64.054259
G02 X15.804551 Y84.344890 Z-0.625000 I-7.464491 J-38.033373
G02 X21.975345 Y81.177749 Z-0.625000 I-13.455966 J-33.812428
G02 X28.445869 Y75.650510 Z-0.625000 I-16.681169 J-26.079010
G02 X33.017425 Y68.738780 Z-0.625000 I-21.953820 J-19.488419
G02 X35.658893 Y60.774762 Z-0.625000 I-29.255800 J-14.123490
G02 X36.742464 Y49.448399 Z-0.625000 I-58.654383 J-11.326363
G01 X36.742464 Y49.448399 Z-0.625000
G00 Z100.000000

(End cutting path id: text334)


(Footer)
M5
G00 X0.0000 Y0.0000
M2
(Using default footer. To add your own footer create file "footer" in the output dir.)
(end)
%