%
(Header)
(Generated by gcodetools from Inkscape.)
(Using default header. To add your own header create file "header" in the output dir.)
M3
(Header end.)
G21 (All units in mm)

(Start cutting path id: text277)
(Change tool to Default tool)

G00 Z25.000000
G00 X32.243861 Y99.212025

G01 Z-0.625000 F100.0(Penetrate)
G01 X-33.544533 Y99.212025 Z-0.625000 F400.000000
G01 X-33.544533 Y-0.644162 Z-0.625000
G01 X32.243861 Y-0.644162 Z-0.625000
G01 X32.243861 Y11.158851 Z-0.625000
G01 X-20.266141 Y11.158851 Z-0.625000
G01 X-20.266141 Y38.520385 Z-0.625000
G01 X32.243861 Y38.520385 Z-0.625000
G01 X32.243861 Y50.323400 Z-0.625000
G01 X-20.266141 Y50.323400 Z-0.625000
G01 X-20.266141 Y87.409009 Z-0.625000
G01 X32.243861 Y87.409009 Z-0.625000
G01 X32.243861 Y99.212025 Z-0.625000
G00 Z25.000000

(End cutting path id: text277)


(Footer)
M5
G00 X0.0000 Y0.0000
M2
(Using default footer. To add your own footer create file "footer" in the output dir.)
(end)
%