%
(Header)
(Generated by gcodetools from Inkscape.)
(Using default header. To add your own header create file "header" in the output dir.)
M3
(Header end.)
G21 (All units in mm)

(Start cutting path id: text418)
(Change tool to Default tool)

G00 Z100.000000
G00 X29.697963 Y11.972576

G01 Z-0.625000 F100.0(Penetrate)
G01 X-20.288663 Y11.972576 Z-0.625000 F400.000000
G01 X-20.288663 Y39.853563 Z-0.625000
G01 X22.661333 Y39.853563 Z-0.625000
G01 X22.661333 Y51.537024 Z-0.625000
G01 X-20.288663 Y51.537024 Z-0.625000
G01 X-20.288663 Y99.133852 Z-0.625000
G01 X-33.432557 Y99.133852 Z-0.625000
G01 X-33.432557 Y0.289115 Z-0.625000
G01 X29.697963 Y0.289115 Z-0.625000
G01 X29.697963 Y11.972576 Z-0.625000
G00 Z100.000000

(End cutting path id: text418)


(Footer)
M5
G00 X0.0000 Y0.0000
M2
(Using default footer. To add your own footer create file "footer" in the output dir.)
(end)
%