%
(Header)
(Generated by gcodetools from Inkscape.)
(Using default header. To add your own header create file "header" in the output dir.)
M3
(Header end.)
G21 (All units in mm)

(Start cutting path id: text475)
(Change tool to Default tool)

G00 Z100.000000
G00 X51.447407 Y90.236100

G01 Z-0.625000 F100.0(Penetrate)
G03 X43.523595 Y93.502960 Z-0.625000 I-45.529155 J-99.188512 F400.000000
G03 X34.363449 Y96.506617 Z-0.625000 I-47.573000 J-129.612149
G03 X25.062397 Y98.505073 Z-0.625000 I-19.829115 J-69.643724
G03 X16.511672 Y99.129996 Z-0.625000 I-8.550725 J-58.186638
G03 X5.510986 Y98.306991 Z-0.625000 I0.000000 J-73.931732
G03 X-3.899500 Y96.058723 Z-0.625000 I8.462283 J-56.238923
G03 X-12.654228 Y92.109643 Z-0.625000 I14.527051 J-43.883800
G03 X-19.703761 Y86.844903 Z-0.625000 I19.539373 J-33.515453
G03 X-25.411920 Y80.045108 Z-0.625000 I26.060754 J-27.672759
G03 X-29.877354 Y71.360566 Z-0.625000 I38.435879 J-25.253326
G03 X-32.457959 Y61.833101 Z-0.625000 I45.369355 J-17.401945
G03 X-33.460507 Y49.541727 Z-0.625000 I74.845693 J-12.291374
G03 X-29.659316 Y28.284404 Z-0.625000 I61.339042 J-0.000000
G03 X-20.151655 Y13.518249 Z-0.625000 I38.056644 J14.060004
G03 X-5.213876 Y4.077325 Z-0.625000 I28.883566 J29.162633
G03 X16.511672 Y0.273382 Z-0.625000 I21.725548 J60.138836
G03 X24.581996 Y0.754638 Z-0.625000 I-0.000000 J67.907503
G03 X33.083751 Y2.256913 Z-0.625000 I-9.203167 J76.890967
G03 X41.416813 Y4.687128 Z-0.625000 I-15.434077 J68.424406
G03 X51.383422 Y8.847354 Z-0.625000 I-36.793228 J102.163720
G01 X51.383422 Y23.883797 Z-0.625000
G01 X50.231695 Y23.883797 Z-0.625000
G02 X48.213054 Y22.397190 Z-0.625000 I-31.922708 J41.233496
G02 X44.473057 Y19.852751 Z-0.625000 I-97.358490 J139.083578
G02 X40.617478 Y17.502561 Z-0.625000 I-33.962827 J51.379655
G02 X37.050813 Y15.693734 Z-0.625000 I-23.616000 J42.145467
G02 X32.552761 Y13.958571 Z-0.625000 I-18.275475 J40.677691
G02 X27.005189 Y12.430506 Z-0.625000 I-19.626237 J60.418026
G02 X21.394098 Y11.460060 Z-0.625000 I-10.192571 J42.226368
G02 X14.336186 Y11.086824 Z-0.625000 I-7.057912 J66.546033
G02 X-0.384707 Y13.964940 Z-0.625000 I0.000000 J39.086028
G02 X-11.001820 Y21.388387 Z-0.625000 I10.981093 J27.009398
G02 X-17.596678 Y32.660810 Z-0.625000 I23.552925 J21.344838
G02 X-20.279625 Y49.157818 Z-0.625000 I49.377254 J16.497008
G02 X-17.427235 Y66.515696 Z-0.625000 I54.240847 J-0.000000
G02 X-10.553926 Y77.951007 Z-0.625000 I29.562526 J-9.985564
G02 X0.414600 Y85.293655 Z-0.625000 I21.816007 J-20.725208
G02 X15.935808 Y88.188585 Z-0.625000 I15.521208 J-40.161126
G02 X22.048325 Y87.885308 Z-0.625000 I0.000000 J-61.750125
G02 X28.156917 Y86.972872 Z-0.625000 I-6.225547 J-62.583104
G02 X34.218872 Y85.492026 Z-0.625000 I-13.709267 J-69.267901
G02 X38.906374 Y83.837614 Z-0.625000 I-12.545953 J-43.014699
G01 X38.906374 Y60.483139 Z-0.625000
G01 X13.376413 Y60.483139 Z-0.625000
G01 X13.376413 Y49.349773 Z-0.625000
G01 X51.447407 Y49.349773 Z-0.625000
G01 X51.447407 Y90.236100 Z-0.625000
G00 Z100.000000

(End cutting path id: text475)


(Footer)
M5
G00 X0.0000 Y0.0000
M2
(Using default footer. To add your own footer create file "footer" in the output dir.)
(end)
%