%
(Header)
(Generated by gcodetools from Inkscape.)
(Using default header. To add your own header create file "header" in the output dir.)
M3
(Header end.)
G21 (All units in mm)

(Start cutting path id: text1)
(Change tool to Default tool)

G00 Z25.000000
G00 X42.793078 Y99.315705

G01 Z-0.625000 F100.0(Penetrate)
G01 X29.538389 Y99.315705 Z-0.625000 F400.000000
G01 X29.538389 Y50.514352 Z-0.625000
G01 X-20.200164 Y50.514352 Z-0.625000
G01 X-20.200164 Y99.315705 Z-0.625000
G01 X-33.454852 Y99.315705 Z-0.625000
G01 X-33.454852 Y-0.362226 Z-0.625000
G01 X-20.200164 Y-0.362226 Z-0.625000
G01 X-20.200164 Y38.732407 Z-0.625000
G01 X29.538389 Y38.732407 Z-0.625000
G01 X29.538389 Y-0.362226 Z-0.625000
G01 X42.793078 Y-0.362226 Z-0.625000
G01 X42.793078 Y99.315705 Z-0.625000
G00 Z25.000000

(End cutting path id: text1)


(Footer)
M5
G00 X0.0000 Y0.0000
M2
(Using default footer. To add your own footer create file "footer" in the output dir.)
(end)
%