%
(Header)
(Generated by gcodetools from Inkscape.)
(Using default header. To add your own header create file "header" in the output dir.)
M3
(Header end.)
G21 (All units in mm)

(Start cutting path id: text1)
(Change tool to Default tool)

G00 Z100.000000
G00 X5.769361 Y99.416524

G01 Z-0.625000 F100.0(Penetrate)
G01 X-33.554000 Y99.416524 Z-0.625000 F400.000000
G01 X-33.554000 Y89.251302 Z-0.625000
G01 X-20.513089 Y89.251302 Z-0.625000
G01 X-20.513089 Y10.002692 Z-0.625000
G01 X-33.554000 Y10.002692 Z-0.625000
G01 X-33.554000 Y-0.162530 Z-0.625000
G01 X5.769361 Y-0.162530 Z-0.625000
G01 X5.769361 Y10.002692 Z-0.625000
G01 X-7.271550 Y10.002692 Z-0.625000
G01 X-7.271550 Y89.251302 Z-0.625000
G01 X5.769361 Y89.251302 Z-0.625000
G01 X5.769361 Y99.416524 Z-0.625000
G00 Z100.000000

(End cutting path id: text1)


(Footer)
M5
G00 X0.0000 Y0.0000
M2
(Using default footer. To add your own footer create file "footer" in the output dir.)
(end)
%