%
(Header)
(Generated by gcodetools from Inkscape.)
(Using default header. To add your own header create file "header" in the output dir.)
M3
(Header end.)
G21 (All units in mm)

(Start cutting path id: text565)
(Change tool to Default tool)

G00 Z100.000000
G00 X13.080513 Y72.300035

G01 Z-0.625000 F100.0(Penetrate)
G03 X10.809286 Y84.166587 Z-0.625000 I-32.135387 J-0.000000 F400.000000
G03 X5.188228 Y92.162287 Z-0.625000 I-19.543603 J-7.765669
G03 X-3.403346 Y97.124705 Z-0.625000 I-16.295125 J-18.293585
G03 X-15.857867 Y99.133806 Z-0.625000 I-12.454521 J-37.598553
G03 X-19.008578 Y99.023176 Z-0.625000 I-0.000000 J-44.920738
G03 X-24.276305 Y98.541885 Z-0.625000 I8.869789 J-126.148121
G03 X-29.517498 Y97.889081 Z-0.625000 I10.839031 J-108.390308
G03 X-33.089357 Y97.226504 Z-0.625000 I7.607249 J-50.968568
G01 X-33.089357 Y85.059230 Z-0.625000
G01 X-32.365898 Y85.059230 Z-0.625000
G02 X-29.649425 Y85.912434 Z-0.625000 I18.611080 J-54.503856
G02 X-25.723224 Y86.966533 Z-0.625000 I32.400535 J-112.843206
G02 X-21.746323 Y87.703220 Z-0.625000 I7.939827 J-31.759335
G02 X-17.633631 Y87.953068 Z-0.625000 I4.112692 J-33.724103
G02 X-11.663021 Y87.525873 Z-0.625000 I0.000000 J-41.937144
G02 X-8.031351 Y86.571918 Z-0.625000 I-2.349383 J-16.333804
G02 X-4.747529 Y84.773087 Z-0.625000 I-4.910763 J-12.861523
G02 X-2.704058 Y82.625776 Z-0.625000 I-5.136036 J-6.933650
G02 X-1.315744 Y79.850534 Z-0.625000 I-9.927733 J-6.701218
G02 X-0.467910 Y76.180409 Z-0.625000 I-16.673884 J-5.784818
G02 X-0.090528 Y72.355592 Z-0.625000 I-49.180273 J-6.783481
G02 X0.058242 Y67.367357 Z-0.625000 I-83.552999 J-4.988235
G01 X0.058242 Y10.214055 Z-0.625000
G01 X-20.659008 Y10.214055 Z-0.625000
G01 X-20.659008 Y-0.177454 Z-0.625000
G01 X13.080513 Y-0.177454 Z-0.625000
G01 X13.080513 Y72.300035 Z-0.625000
G00 Z100.000000

(End cutting path id: text565)


(Footer)
M5
G00 X0.0000 Y0.0000
M2
(Using default footer. To add your own footer create file "footer" in the output dir.)
(end)
%