%
(Header)
(Generated by gcodetools from Inkscape.)
(Using default header. To add your own header create file "header" in the output dir.)
M3
(Header end.)
G21 (All units in mm)

(Start cutting path id: text641)
(Change tool to Default tool)

G00 Z100.000000
G00 X45.955830 Y99.133765

G01 Z-0.625000 F100.0(Penetrate)
G01 X28.849771 Y99.133765 Z-0.625000 F400.000000
G01 X-10.354390 Y55.004124 Z-0.625000
G01 X-20.205350 Y65.520690 Z-0.625000
G01 X-20.205350 Y99.133765 Z-0.625000
G01 X-33.384338 Y99.133765 Z-0.625000
G01 X-33.384338 Y0.025115 Z-0.625000
G01 X-20.205350 Y0.025115 Z-0.625000
G01 X-20.205350 Y51.742658 Z-0.625000
G01 X27.917923 Y0.025115 Z-0.625000
G01 X43.892454 Y0.025115 Z-0.625000
G01 X-0.370308 Y46.617496 Z-0.625000
G01 X45.955830 Y99.133765 Z-0.625000
G00 Z100.000000

(End cutting path id: text641)


(Footer)
M5
G00 X0.0000 Y0.0000
M2
(Using default footer. To add your own footer create file "footer" in the output dir.)
(end)
%