%
(Header)
(Generated by gcodetools from Inkscape.)
(Using default header. To add your own header create file "header" in the output dir.)
M3
(Header end.)
G21 (All units in mm)

(Start cutting path id: text340)
(Change tool to Default tool)

G00 Z25.000000
G00 X29.842890 Y99.933520

G01 Z-0.625000 F100.0(Penetrate)
G01 X-33.544789 Y99.933520 Z-0.625000 F400.000000
G01 X-33.544789 Y-0.262076 Z-0.625000
G01 X-20.221264 Y-0.262076 Z-0.625000
G01 X-20.221264 Y88.090387 Z-0.625000
G01 X29.842890 Y88.090387 Z-0.625000
G01 X29.842890 Y99.933520 Z-0.625000
G00 Z25.000000

(End cutting path id: text340)


(Footer)
M5
G00 X0.0000 Y0.0000
M2
(Using default footer. To add your own footer create file "footer" in the output dir.)
(end)
%