%
(Header)
(Generated by gcodetools from Inkscape.)
(Using default header. To add your own header create file "header" in the output dir.)
M3
(Header end.)
G21 (All units in mm)

(Start cutting path id: text696)
(Change tool to Default tool)

G00 Z100.000000
G00 X54.826712 Y99.133765

G01 Z-0.625000 F100.0(Penetrate)
G01 X41.647725 Y99.133765 Z-0.625000 F400.000000
G01 X41.647725 Y13.736587 Z-0.625000
G01 X14.091659 Y71.843942 Z-0.625000
G01 X6.237515 Y71.843942 Z-0.625000
G01 X-21.118868 Y13.736587 Z-0.625000
G01 X-21.118868 Y99.133765 Z-0.625000
G01 X-33.432569 Y99.133765 Z-0.625000
G01 X-33.432569 Y0.025115 Z-0.625000
G01 X-15.461222 Y0.025115 Z-0.625000
G01 X10.963314 Y55.203806 Z-0.625000
G01 X36.522563 Y0.025115 Z-0.625000
G01 X54.826712 Y0.025115 Z-0.625000
G01 X54.826712 Y99.133765 Z-0.625000
G00 Z100.000000

(End cutting path id: text696)


(Footer)
M5
G00 X0.0000 Y0.0000
M2
(Using default footer. To add your own footer create file "footer" in the output dir.)
(end)
%