%
(Header)
(Generated by gcodetools from Inkscape.)
(Using default header. To add your own header create file "header" in the output dir.)
M3
(Header end.)
G21 (All units in mm)

(Start cutting path id: text756)
(Change tool to Default tool)

G00 Z100.000000
G00 X42.206873 Y99.168666

G01 Z-0.625000 F100.0(Penetrate)
G01 X25.893797 Y99.168666 Z-0.625000 F400.000000
G01 X-21.114495 Y10.478800 Z-0.625000
G01 X-21.114495 Y99.168666 Z-0.625000
G01 X-33.432532 Y99.168666 Z-0.625000
G01 X-33.432532 Y0.025115 Z-0.625000
G01 X-12.991249 Y0.025115 Z-0.625000
G01 X29.888836 Y80.991239 Z-0.625000
G01 X29.888836 Y0.025115 Z-0.625000
G01 X42.206873 Y0.025115 Z-0.625000
G01 X42.206873 Y99.168666 Z-0.625000
G00 Z100.000000

(End cutting path id: text756)


(Footer)
M5
G00 X0.0000 Y0.0000
M2
(Using default footer. To add your own footer create file "footer" in the output dir.)
(end)
%