%
(Header)
(Generated by gcodetools from Inkscape.)
(Using default header. To add your own header create file "header" in the output dir.)
M3
(Header end.)
G21 (All units in mm)

(Start cutting path id: text389)
(Change tool to Default tool)

G00 Z25.000000
G00 X42.964402 Y17.184353

G01 Z-0.625000 F100.0(Penetrate)
G03 X47.944941 Y24.055797 Z-0.625000 I-28.300169 J25.753154 F400.000000
G03 X51.840788 Y32.829780 Z-0.625000 I-42.586173 J24.161138
G03 X54.110137 Y42.230659 Z-0.625000 I-51.529805 J17.413517
G03 X54.969873 Y53.839355 Z-0.625000 I-77.944121 J11.608696
G03 X54.095732 Y65.443858 Z-0.625000 I-77.463871 J0.000000
G03 X51.776929 Y74.912788 Z-0.625000 I-53.747097 J-8.143499
G03 X47.834824 Y83.691424 Z-0.625000 I-47.463685 J-16.039454
G03 X42.964402 Y90.366640 Z-0.625000 I-32.089460 J-18.298947
G03 X36.530817 Y96.014301 Z-0.625000 I-28.423895 J-25.891075
G03 X29.043164 Y100.073191 Z-0.625000 I-21.766002 J-31.217031
G03 X20.885444 Y102.435993 Z-0.625000 I-15.239819 J-37.352497
G03 X10.779522 Y103.329994 Z-0.625000 I-10.105922 J-56.672422
G03 X0.926015 Y102.441504 Z-0.625000 I-0.000000 J-55.082776
G03 X-7.484120 Y100.009332 Z-0.625000 I7.715799 J-42.436895
G03 X-15.100318 Y95.889700 Z-0.625000 I14.850423 J-36.554889
G03 X-21.405358 Y90.366640 Z-0.625000 I21.052266 J-30.393339
G03 X-26.347570 Y83.569752 Z-0.625000 I28.551318 J-25.955737
G03 X-30.281743 Y74.848929 Z-0.625000 I43.408967 J-24.830641
G03 X-32.499682 Y65.515753 Z-0.625000 I51.520151 J-17.173384
G03 X-33.346970 Y53.839355 Z-0.625000 I80.031976 J-11.676398
G03 X-32.505921 Y42.353520 Z-0.625000 I78.849009 J0.000000
G03 X-30.281743 Y33.021357 Z-0.625000 I54.131526 J7.970286
G03 X-26.393043 Y24.238091 Z-0.625000 I47.020822 J15.565514
G03 X-21.341499 Y17.184353 Z-0.625000 I35.187789 J19.864075
G03 X-15.150264 Y11.744427 Z-0.625000 I25.996629 J23.343911
G03 X-7.420261 Y7.605519 Z-0.625000 I22.417758 J32.580473
G03 X1.112506 Y5.159543 Z-0.625000 I16.617073 J41.862292
G03 X10.779522 Y4.284861 Z-0.625000 I9.667016 J52.982748
G03 X20.812945 Y5.203524 Z-0.625000 I0.000000 J55.250658
G03 X29.107023 Y7.669378 Z-0.625000 I-7.400238 J40.073036
G03 X36.735356 Y11.775468 Z-0.625000 I-15.137655 J37.261923
G03 X42.964402 Y17.184353 Z-0.625000 I-20.644320 J30.065887
G01 X42.964402 Y17.184353 Z-0.625000
G00 Z25.000000

(End cutting path id: text389)


(Start cutting path id: text389)
(Change tool to Default tool)

G00 Z25.000000
G00 X41.814942 Y53.839355

G01 Z-0.625000 F100.0(Penetrate)
G02 X39.305467 Y36.224378 Z-0.625000 I-63.077901 J-0.000000 F400.000000
G02 X33.513287 Y25.294432 Z-0.625000 I-29.274170 J8.513740
G02 X23.901441 Y17.979402 Z-0.625000 I-20.302134 J16.704288
G02 X10.843381 Y15.204727 Z-0.625000 I-13.058060 J29.339311
G02 X-2.336906 Y17.991030 Z-0.625000 I0.000000 J32.567077
G02 X-11.954242 Y25.294432 Z-0.625000 I10.591150 J23.930636
G02 X-17.699491 Y36.212946 Z-0.625000 I23.592857 J19.385216
G02 X-20.192039 Y53.839355 Z-0.625000 I61.077554 J17.626409
G02 X-17.633592 Y71.612830 Z-0.625000 I63.015193 J-0.000000
G02 X-11.762666 Y82.511996 Z-0.625000 I28.735632 J-8.447892
G02 X-2.083457 Y89.704109 Z-0.625000 I20.455935 J-17.420539
G02 X10.843381 Y92.410124 Z-0.625000 I12.926838 J-29.523229
G02 X23.761634 Y89.698891 Z-0.625000 I0.000000 J-32.131510
G02 X33.385569 Y82.511996 Z-0.625000 I-10.696867 J-24.361251
G02 X39.256495 Y71.612830 Z-0.625000 I-22.864706 J-19.347058
G02 X41.814942 Y53.839355 Z-0.625000 I-60.456746 J-17.773475
G01 X41.814942 Y53.839355 Z-0.625000
G00 Z25.000000

(End cutting path id: text389)


(Footer)
M5
G00 X0.0000 Y0.0000
M2
(Using default footer. To add your own footer create file "footer" in the output dir.)
(end)
%