%
(Header)
(Generated by gcodetools from Inkscape.)
(Using default header. To add your own header create file "header" in the output dir.)
M3
(Header end.)
G21 (All units in mm)

(Start cutting path id: text809)
(Change tool to Default tool)

G00 Z100.000000
G00 X31.397400 Y30.241360

G01 Z-0.625000 F100.0(Penetrate)
G03 X30.787622 Y36.710224 Z-0.625000 I-34.617523 J-0.000000 F400.000000
G03 X29.067781 Y42.488500 Z-0.625000 I-29.277921 J-5.569170
G03 X26.307495 Y47.750251 Z-0.625000 I-27.996488 J-11.331916
G03 X22.677969 Y52.206339 Z-0.625000 I-23.610005 J-15.524387
G03 X17.124659 Y56.664291 Z-0.625000 I-23.148859 J-23.148859
G03 X10.563950 Y59.927362 Z-0.625000 I-18.628801 J-29.227947
G03 X3.443501 Y61.706373 Z-0.625000 I-12.215759 J-33.754070
G03 X-7.074595 Y62.456663 Z-0.625000 I-10.518096 J-73.349877
G01 X-20.253582 Y62.456663 Z-0.625000
G01 X-20.253582 Y99.397765 Z-0.625000
G01 X-33.432570 Y99.397765 Z-0.625000
G01 X-33.432570 Y0.289115 Z-0.625000
G01 X-6.542110 Y0.289115 Z-0.625000
G03 X2.322435 Y0.737053 Z-0.625000 I0.000000 J87.937168
G03 X8.567133 Y1.820007 Z-0.625000 I-4.519887 J44.609329
G03 X14.542333 Y3.778655 Z-0.625000 I-8.578574 J36.263975
G03 X19.549623 Y6.479245 Z-0.625000 I-11.913444 J28.081691
G03 X24.612009 Y10.814612 Z-0.625000 I-15.835604 J23.614496
G03 X28.269054 Y15.930843 Z-0.625000 I-18.605416 J17.164149
G03 X30.488009 Y21.823166 Z-0.625000 I-19.074779 J10.547233
G03 X31.397400 Y30.241360 Z-0.625000 I-38.508756 J8.418194
G01 X31.397400 Y30.241360 Z-0.625000
G00 Z100.000000

(End cutting path id: text809)


(Start cutting path id: text809)
(Change tool to Default tool)

G00 Z100.000000
G00 X17.685928 Y30.574162

G01 Z-0.625000 F100.0(Penetrate)
G02 X17.185938 Y25.561431 Z-0.625000 I-25.377985 J0.000000 F400.000000
G02 X15.888793 Y21.655049 Z-0.625000 I-16.608952 J3.346580
G02 X13.645602 Y18.249804 Z-0.625000 I-13.192731 J6.249189
G02 X10.430828 Y15.464919 Z-0.625000 I-11.912786 J10.503749
G02 X7.096102 Y13.741632 Z-0.625000 I-10.571634 J16.368980
G02 X3.109169 Y12.536255 Z-0.625000 I-8.910499 J22.276244
G02 X-0.982807 Y11.884961 Z-0.625000 I-6.844408 J29.822059
G02 X-7.207716 Y11.604407 Z-0.625000 I-6.224909 J68.918616
G01 X-20.253582 Y11.604407 Z-0.625000
G01 X-20.253582 Y51.207931 Z-0.625000
G01 X-9.137971 Y51.207931 Z-0.625000
G02 X-1.209180 Y50.782227 Z-0.625000 I0.000000 J-74.050213
G02 X3.841335 Y49.810160 Z-0.625000 I-3.326684 J-30.890645
G02 X8.526834 Y47.829022 Z-0.625000 I-6.255820 J-21.326657
G02 X11.961721 Y45.217482 Z-0.625000 I-7.871766 J-13.918193
G02 X14.716597 Y41.788666 Z-0.625000 I-16.054678 J-15.720208
G02 X16.354717 Y38.494867 Z-0.625000 I-13.157218 J-8.597786
G02 X17.324836 Y34.901294 Z-0.625000 I-17.949234 J-6.773296
G02 X17.685928 Y30.574162 Z-0.625000 I-25.746434 J-4.327132
G01 X17.685928 Y30.574162 Z-0.625000
G00 Z100.000000

(End cutting path id: text809)


(Footer)
M5
G00 X0.0000 Y0.0000
M2
(Using default footer. To add your own footer create file "footer" in the output dir.)
(end)
%