%
(Header)
(Generated by gcodetools from Inkscape.)
(Using default header. To add your own header create file "header" in the output dir.)
M3
(Header end.)
G21 (All units in mm)

(Start cutting path id: text895)
(Change tool to Default tool)

G00 Z100.000000
G00 X39.644998 Y97.719969

G01 Z-0.625000 F100.0(Penetrate)
G03 X36.521340 Y98.385183 Z-0.625000 I-11.019564 J-44.078262 F400.000000
G03 X33.488200 Y98.806463 Z-0.625000 I-7.259317 J-41.136136
G03 X30.481841 Y99.076048 Z-0.625000 I-5.895800 J-48.850906
G03 X27.331403 Y99.168628 Z-0.625000 I-3.150438 J-53.557445
G03 X18.872545 Y97.758818 Z-0.625000 I-0.000000 J-26.081478
G03 X12.844821 Y94.201800 Z-0.625000 I5.634555 J-16.434118
G03 X8.877876 Y88.591503 Z-0.625000 I10.567148 J-11.679478
G03 X6.946713 Y80.077382 Z-0.625000 I23.463979 J-9.798144
G03 X5.701128 Y80.247284 Z-0.625000 I-3.493652 J-20.961929
G03 X4.515036 Y80.336071 Z-0.625000 I-2.012424 J-18.916786
G03 X3.375661 Y80.414320 Z-0.625000 I-2.340458 J-25.744926
G03 X2.290311 Y80.439547 Z-0.625000 I-1.085350 J-23.334923
G03 X-5.692895 Y79.719702 Z-0.625000 I0.000000 J-44.627469
G03 X-12.506698 Y77.749181 Z-0.625000 I6.251260 J-34.381919
G03 X-18.677260 Y74.411499 Z-0.625000 I12.031654 J-29.616379
G03 X-23.785536 Y69.936775 Z-0.625000 I17.056323 J-24.624361
G03 X-27.789664 Y64.430009 Z-0.625000 I23.131967 J-21.029059
G03 X-30.977089 Y57.364491 Z-0.625000 I35.169476 J-20.117519
G03 X-32.774039 Y49.802851 Z-0.625000 I41.741075 J-13.913692
G03 X-33.460504 Y40.342757 Z-0.625000 I64.841062 J-9.460094
G03 X-32.779095 Y31.037056 Z-0.625000 I63.882623 J-0.000000
G03 X-30.977089 Y23.476237 Z-0.625000 I43.856785 J6.457441
G03 X-27.826506 Y16.360129 Z-0.625000 I38.095780 J12.611016
G03 X-23.733799 Y10.645264 Z-0.625000 I28.508783 J16.093666
G03 X-18.717726 Y6.237894 Z-0.625000 I21.062197 J18.912997
G03 X-12.454960 Y2.884595 Z-0.625000 I18.162633 J26.396360
G03 X-5.541802 Y0.902889 Z-0.625000 I13.462979 J33.916355
G03 X2.290311 Y0.194230 Z-0.625000 I7.832113 J42.926007
G03 X10.419283 Y0.938522 Z-0.625000 I0.000000 J44.763445
G03 X17.139058 Y2.936333 Z-0.625000 I-5.995596 J32.466720
G03 X23.319452 Y6.263043 Z-0.625000 I-12.264370 J30.189220
G03 X28.366159 Y10.645264 Z-0.625000 I-16.725814 J24.359071
G03 X32.401339 Y16.212436 Z-0.625000 I-22.928503 J20.864934
G03 X35.557712 Y23.321023 Z-0.625000 I-34.502868 J19.575096
G03 X37.396315 Y30.937515 Z-0.625000 I-41.748891 J14.108247
G03 X38.092864 Y40.342757 Z-0.625000 I-63.149480 J9.405242
G03 X36.452556 Y54.013531 Z-0.625000 I-57.788127 J0.000000
G03 X32.298231 Y64.142142 Z-0.625000 I-35.494960 J-8.642251
G03 X25.389732 Y72.453717 Z-0.625000 I-29.573711 J-17.554449
G03 X16.828631 Y77.697444 Z-0.625000 I-19.556666 J-22.318485
G02 X17.769184 Y83.325298 Z-0.625000 I21.906914 J-0.768663
G02 X19.622472 Y86.855033 Z-0.625000 I10.235254 J-3.122620
G02 X22.722462 Y89.052232 Z-0.625000 I5.322891 J-4.224516
G02 X29.038750 Y90.114514 Z-0.625000 I6.316288 J-18.247053
G02 X31.143913 Y89.974074 Z-0.625000 I0.000000 J-15.848201
G02 X34.057316 Y89.441923 Z-0.625000 I-4.148012 J-30.950563
G02 X36.980525 Y88.737858 Z-0.625000 I-10.734883 J-50.990651
G02 X38.248077 Y88.303691 Z-0.625000 I-2.712003 J-9.985096
G01 X39.644998 Y88.303691 Z-0.625000
G01 X39.644998 Y97.719969 Z-0.625000
G00 Z100.000000

(End cutting path id: text895)


(Start cutting path id: text895)
(Change tool to Default tool)

G00 Z100.000000
G00 X27.434879 Y40.342757

G01 Z-0.625000 F100.0(Penetrate)
G02 X25.401728 Y26.071290 Z-0.625000 I-51.105033 J-0.000000 F400.000000
G02 X20.708965 Y17.215964 Z-0.625000 I-23.717619 J6.897743
G02 X12.921550 Y11.289405 Z-0.625000 I-16.448572 J13.533635
G02 X2.342049 Y9.041393 Z-0.625000 I-10.579501 J23.770398
G02 X-8.336480 Y11.298826 Z-0.625000 I-0.000000 J26.385502
G02 X-16.128343 Y17.215964 Z-0.625000 I8.580837 J19.388348
G02 X-20.783082 Y26.062028 Z-0.625000 I19.114683 J15.705695
G02 X-22.802518 Y40.342757 Z-0.625000 I49.484389 J14.280729
G02 X-20.729691 Y54.742638 Z-0.625000 I51.054246 J-0.000000
G02 X-15.973130 Y63.573026 Z-0.625000 I23.281299 J-6.844390
G02 X-8.131138 Y69.399999 Z-0.625000 I16.573180 J-14.113935
G02 X2.342049 Y71.592384 Z-0.625000 I10.473187 J-23.919408
G02 X12.808280 Y69.395772 Z-0.625000 I0.000000 J-26.032609
G02 X20.605490 Y63.573026 Z-0.625000 I-8.666487 J-19.737225
G02 X25.362052 Y54.742638 Z-0.625000 I-18.524736 J-15.674779
G02 X27.434879 Y40.342757 Z-0.625000 I-48.981412 J-14.399881
G01 X27.434879 Y40.342757 Z-0.625000
G00 Z100.000000

(End cutting path id: text895)


(Footer)
M5
G00 X0.0000 Y0.0000
M2
(Using default footer. To add your own footer create file "footer" in the output dir.)
(end)
%