%
(Header)
(Generated by gcodetools from Inkscape.)
(Using default header. To add your own header create file "header" in the output dir.)
M3
(Header end.)
G21 (All units in mm)

(Start cutting path id: text1062)
(Change tool to Default tool)

G00 Z100.000000
G00 X48.570021 Y99.133765

G01 Z-0.625000 F100.0(Penetrate)
G01 X31.463961 Y99.133765 Z-0.625000 F400.000000
G01 X-1.683190 Y59.729923 Z-0.625000
G01 X-20.253581 Y59.729923 Z-0.625000
G01 X-20.253581 Y99.133765 Z-0.625000
G01 X-33.432569 Y99.133765 Z-0.625000
G01 X-33.432569 Y0.025115 Z-0.625000
G01 X-5.676822 Y0.025115 Z-0.625000
G03 X3.273457 Y0.382555 Z-0.625000 I0.000000 J112.235911
G03 X9.299300 Y1.223205 Z-0.625000 I-4.129315 J51.616430
G03 X15.090625 Y2.864122 Z-0.625000 I-6.255780 J33.118840
G03 X20.082108 Y5.349958 Z-0.625000 I-10.338803 J27.014297
G03 X24.930486 Y9.266983 Z-0.625000 I-14.150085 J22.473663
G03 X28.468737 Y13.936269 Z-0.625000 I-16.783972 J16.393646
G03 X30.641900 Y19.306651 Z-0.625000 I-16.212486 J9.685381
G03 X31.530522 Y26.982135 Z-0.625000 I-32.704237 J7.675484
G03 X30.030554 Y37.202073 Z-0.625000 I-35.566428 J-0.000000
G03 X26.139118 Y44.953482 Z-0.625000 I-24.018837 J-7.205651
G03 X19.940321 Y51.076442 Z-0.625000 I-23.626541 J-17.719905
G03 X11.296116 Y55.802851 Z-0.625000 I-22.282052 J-30.484035
G01 X48.570021 Y99.133765 Z-0.625000
G00 Z100.000000

(End cutting path id: text1062)


(Start cutting path id: text1062)
(Change tool to Default tool)

G00 Z100.000000
G00 X17.752489 Y27.913983

G01 Z-0.625000 F100.0(Penetrate)
G02 X17.332791 Y23.747709 Z-0.625000 I-20.888790 J0.000000 F400.000000
G02 X16.221597 Y20.392641 Z-0.625000 I-14.582211 J2.968059
G02 X14.328359 Y17.428166 Z-0.625000 I-10.505274 J4.622321
G02 X11.296116 Y14.801556 Z-0.625000 I-11.202175 J9.868586
G02 X8.289938 Y13.222962 Z-0.625000 I-8.661908 J12.843515
G02 X4.506941 Y12.139134 Z-0.625000 I-7.596734 J19.371670
G02 X0.556874 Y11.568839 Z-0.625000 I-6.948785 J34.164840
G02 X-4.744975 Y11.340407 Z-0.625000 I-5.301849 J61.413051
G01 X-20.253581 Y11.340407 Z-0.625000
G01 X-20.253581 Y48.747433 Z-0.625000
G01 X-6.941473 Y48.747433 Z-0.625000
G02 X-0.718948 Y48.444614 Z-0.625000 I-0.000000 J-64.083684
G02 X3.974457 Y47.682464 Z-0.625000 I-3.624816 J-37.154358
G02 X8.358597 Y46.035871 Z-0.625000 I-4.576876 J-18.845964
G02 X11.895161 Y43.555711 Z-0.625000 I-7.623532 J-14.632264
G02 X14.519602 Y40.509008 Z-0.625000 I-12.635175 J-13.537690
G02 X16.288157 Y37.165899 Z-0.625000 I-13.498757 J-9.280396
G02 X17.319326 Y33.421650 Z-0.625000 I-16.164774 J-6.465910
G02 X17.752489 Y27.913983 Z-0.625000 I-34.798439 J-5.507667
G01 X17.752489 Y27.913983 Z-0.625000
G00 Z100.000000

(End cutting path id: text1062)


(Footer)
M5
G00 X0.0000 Y0.0000
M2
(Using default footer. To add your own footer create file "footer" in the output dir.)
(end)
%