%
(Header)
(Generated by gcodetools from Inkscape.)
(Using default header. To add your own header create file "header" in the output dir.)
M3
(Header end.)
G21 (All units in mm)

(Start cutting path id: text1349)
(Change tool to Default tool)

G00 Z100.000000
G00 X40.915056 Y70.286308

G01 Z-0.625000 F100.0(Penetrate)
G03 X40.273761 Y75.742304 Z-0.625000 I-23.529862 J-0.000000 F400.000000
G03 X38.274760 Y81.362672 Z-0.625000 I-26.988149 J-6.433221
G03 X35.159981 Y86.413499 Z-0.625000 I-23.859444 J-11.227972
G03 X30.997847 Y90.635906 Z-0.625000 I-20.708952 J-16.250774
G03 X25.555156 Y94.224418 Z-0.625000 I-22.203782 J-27.754729
G03 X18.955522 Y97.075652 Z-0.625000 I-20.383199 J-38.116581
G03 X12.019028 Y98.725816 Z-0.625000 I-12.234322 J-36.023281
G03 X2.469771 Y99.393961 Z-0.625000 I-9.549257 J-67.905830
G03 X-7.837208 Y98.862260 Z-0.625000 I0.000000 J-100.165830
G03 X-16.205492 Y97.462037 Z-0.625000 I6.965933 J-67.337350
G03 X-24.315715 Y95.134953 Z-0.625000 I19.572248 J-83.508265
G03 X-33.013230 Y91.730663 Z-0.625000 I33.921503 J-99.477669
G01 X-33.013230 Y75.760093 Z-0.625000
G01 X-32.111665 Y75.760093 Z-0.625000
G02 X-24.399994 Y81.041399 Z-0.625000 I32.050852 J-38.529219
G02 X-15.303928 Y85.097725 Z-0.625000 I27.635067 J-49.743120
G02 X-5.647484 Y87.631872 Z-0.625000 I21.644098 J-62.810332
G02 X2.598566 Y88.381995 Z-0.625000 I8.246050 J-44.949066
G02 X14.031030 Y87.022408 Z-0.625000 I-0.000000 J-48.746319
G02 X21.016240 Y83.938570 Z-0.625000 I-5.028675 J-20.843494
G02 X25.953503 Y78.590085 Z-0.625000 I-8.695103 J-12.979646
G02 X27.649179 Y72.089437 Z-0.625000 I-11.612808 J-6.500648
G02 X26.675692 Y66.129251 Z-0.625000 I-18.732406 J-0.000000
G02 X24.493703 Y62.687408 Z-0.625000 I-8.086555 J2.713981
G02 X21.067274 Y60.252109 Z-0.625000 I-9.406375 J9.606509
G02 X15.027276 Y57.986393 Z-0.625000 I-14.082640 J28.358191
G02 X10.166706 Y56.847409 Z-0.625000 I-21.142911 J79.285920
G02 X4.530490 Y55.861277 Z-0.625000 I-21.389329 J105.650332
G03 X-1.058199 Y54.945468 Z-0.625000 I29.686025 J-198.668006
G03 X-7.383040 Y53.736161 Z-0.625000 I45.606631 J-255.673557
G03 X-19.347952 Y49.626333 Z-0.625000 I10.799600 J-50.912392
G03 X-26.315894 Y44.527324 Z-0.625000 I10.603839 J-21.800901
G03 X-30.725840 Y37.286661 Z-0.625000 I15.398611 J-14.341844
G03 X-32.433653 Y27.461996 Z-0.625000 I27.405645 J-9.824665
G03 X-29.824315 Y16.721044 Z-0.625000 I23.411435 J-0.000000
G03 X-22.258854 Y7.756373 Z-0.625000 I23.428364 J12.096998
G03 X-11.348847 Y2.212268 Z-0.625000 I20.741586 J27.309756
G03 X3.564528 Y0.028678 Z-0.625000 I14.913375 J49.835531
G03 X13.615912 Y0.550775 Z-0.625000 I0.000000 J97.015374
G03 X22.110997 Y1.960602 Z-0.625000 I-7.357649 J70.633422
G03 X30.433793 Y4.236652 Z-0.625000 I-23.035619 J100.588921
G03 X37.051208 Y6.726014 Z-0.625000 I-21.054809 J66.009674
G01 X37.051208 Y21.795020 Z-0.625000
G01 X36.149644 Y21.795020 Z-0.625000
G02 X30.296872 Y17.828965 Z-0.625000 I-21.349519 J25.204293
G02 X21.724612 Y14.131722 Z-0.625000 I-27.020197 J50.861549
G02 X12.706787 Y11.815884 Z-0.625000 I-18.366928 J52.804917
G02 X3.500131 Y11.040644 Z-0.625000 I-9.206656 J54.280910
G02 X-6.354182 Y12.290492 Z-0.625000 I0.000000 J39.472642
G02 X-12.985619 Y15.290876 Z-0.625000 I5.291035 J20.522804
G02 X-17.621241 Y20.354634 Z-0.625000 I8.632479 J12.556333
G02 X-19.167776 Y26.238445 Z-0.625000 I10.419249 J5.883811
G02 X-18.264330 Y31.879107 Z-0.625000 I18.060460 J0.000000
G02 X-16.076698 Y35.640474 Z-0.625000 I9.954386 J-3.272675
G02 X-12.533344 Y38.283631 Z-0.625000 I8.499682 J-7.697826
G02 X-5.193526 Y40.856668 Z-0.625000 I15.342903 J-32.011742
G02 X-1.059766 Y41.694714 Z-0.625000 I29.386272 J-134.337147
G02 X6.526812 Y43.046182 Z-0.625000 I84.290937 J-451.204362
G03 X14.098239 Y44.463468 Z-0.625000 I-37.527269 J221.410916
G03 X19.406304 Y45.686478 Z-0.625000 I-22.552163 J110.010544
G03 X29.439284 Y49.624262 Z-0.625000 I-12.042486 J45.433020
G03 X35.505669 Y54.251340 Z-0.625000 I-11.061956 J20.793151
G03 X39.327467 Y60.613603 Z-0.625000 I-12.616511 J11.907717
G03 X40.915056 Y70.286308 Z-0.625000 I-28.672660 J9.672705
G01 X40.915056 Y70.286308 Z-0.625000
G00 Z100.000000

(End cutting path id: text1349)


(Footer)
M5
G00 X0.0000 Y0.0000
M2
(Using default footer. To add your own footer create file "footer" in the output dir.)
(end)
%