%
(Header)
(Generated by gcodetools from Inkscape.)
(Using default header. To add your own header create file "header" in the output dir.)
M3
(Header end.)
G21 (All units in mm)

(Start cutting path id: text1146)
(Change tool to Default tool)

G00 Z100.000000
G00 X50.485611 Y11.739771

G01 Z-0.625000 F100.0(Penetrate)
G01 X15.075402 Y11.739771 Z-0.625000 F400.000000
G01 X15.075402 Y99.133765 Z-0.625000
G01 X1.896414 Y99.133765 Z-0.625000
G01 X1.896414 Y11.739771 Z-0.625000
G01 X-33.513795 Y11.739771 Z-0.625000
G01 X-33.513795 Y0.025115 Z-0.625000
G01 X50.485611 Y0.025115 Z-0.625000
G01 X50.485611 Y11.739771 Z-0.625000
G00 Z100.000000

(End cutting path id: text1146)


(Footer)
M5
G00 X0.0000 Y0.0000
M2
(Using default footer. To add your own footer create file "footer" in the output dir.)
(end)
%