%
(Header)
(Generated by gcodetools from Inkscape.)
(Using default header. To add your own header create file "header" in the output dir.)
M3
(Header end.)
G21 (All units in mm)

(Start cutting path id: text1509)
(Change tool to Default tool)

G00 Z100.000000
G00 X56.301340 Y0.289115

G01 Z-0.625000 F100.0(Penetrate)
G01 X20.289567 Y99.221827 Z-0.625000 F400.000000
G01 X2.748777 Y99.221827 Z-0.625000
G01 X-33.262996 Y0.289115 Z-0.625000
G01 X-19.177210 Y0.289115 Z-0.625000
G01 X11.851384 Y87.328640 Z-0.625000
G01 X42.879978 Y0.289115 Z-0.625000
G01 X56.301340 Y0.289115 Z-0.625000
G00 Z100.000000

(End cutting path id: text1509)


(Footer)
M5
G00 X0.0000 Y0.0000
M2
(Using default footer. To add your own footer create file "footer" in the output dir.)
(end)
%