%
(Header)
(Generated by gcodetools from Inkscape.)
(Using default header. To add your own header create file "header" in the output dir.)
M3
(Header end.)
G21 (All units in mm)

(Start cutting path id: text1006)
(Change tool to Default tool)

G00 Z100.000000
G00 X89.414480 Y0.025115

G01 Z-0.625000 F100.0(Penetrate)
G01 X63.593567 Y99.372240 Z-0.625000 F400.000000
G01 X48.714850 Y99.372240 Z-0.625000
G01 X27.831271 Y16.905452 Z-0.625000
G01 X7.414736 Y99.372240 Z-0.625000
G01 X-7.130377 Y99.372240 Z-0.625000
G01 X-33.418334 Y0.025115 Z-0.625000
G01 X-19.874031 Y0.025115 Z-0.625000
G01 X1.009549 Y82.625344 Z-0.625000
G01 X21.559525 Y0.025115 Z-0.625000
G01 X34.970386 Y0.025115 Z-0.625000
G01 X55.720524 Y83.425992 Z-0.625000
G01 X76.470660 Y0.025115 Z-0.625000
G01 X89.414480 Y0.025115 Z-0.625000
G00 Z100.000000

(End cutting path id: text1006)


(Footer)
M5
G00 X0.0000 Y0.0000
M2
(Using default footer. To add your own footer create file "footer" in the output dir.)
(end)
%