%
(Header)
(Generated by gcodetools from Inkscape.)
(Using default header. To add your own header create file "header" in the output dir.)
M3
(Header end.)
G21 (All units in mm)

(Start cutting path id: text1241)
(Change tool to Default tool)

G00 Z100.000000
G00 X51.012911 Y0.025115

G01 Z-0.625000 F100.0(Penetrate)
G01 X16.800791 Y49.013675 Z-0.625000 F400.000000
G01 X50.946351 Y99.133765 Z-0.625000
G01 X35.703986 Y99.133765 Z-0.625000
G01 X8.680405 Y58.332152 Z-0.625000
G01 X-19.008781 Y99.133765 Z-0.625000
G01 X-33.385859 Y99.133765 Z-0.625000
G01 X1.159064 Y49.612720 Z-0.625000
G01 X-32.587132 Y0.025115 Z-0.625000
G01 X-17.411328 Y0.025115 Z-0.625000
G01 X9.279450 Y40.294244 Z-0.625000
G01 X36.569273 Y0.025115 Z-0.625000
G01 X51.012911 Y0.025115 Z-0.625000
G00 Z100.000000

(End cutting path id: text1241)


(Footer)
M5
G00 X0.0000 Y0.0000
M2
(Using default footer. To add your own footer create file "footer" in the output dir.)
(end)
%