%
(Header)
(Generated by gcodetools from Inkscape.)
(Using default header. To add your own header create file "header" in the output dir.)
M3
(Header end.)
G21 (All units in mm)

(Start cutting path id: text1457)
(Change tool to Default tool)

G00 Z100.000000
G00 X49.654446 Y0.289122

G01 Z-0.625000 F100.0(Penetrate)
G01 X14.869596 Y55.785563 Z-0.625000 F400.000000
G01 X14.869596 Y99.133859 Z-0.625000
G01 X1.725702 Y99.133859 Z-0.625000
G01 X1.725702 Y57.179612 Z-0.625000
G01 X-33.191915 Y0.289122 Z-0.625000
G01 X-18.653972 Y0.289122 Z-0.625000
G01 X8.364032 Y44.500402 Z-0.625000
G01 X35.647570 Y0.289122 Z-0.625000
G01 X49.654446 Y0.289122 Z-0.625000
G00 Z100.000000

(End cutting path id: text1457)


(Footer)
M5
G00 X0.0000 Y0.0000
M2
(Using default footer. To add your own footer create file "footer" in the output dir.)
(end)
%