%
(Header)
(Generated by gcodetools from Inkscape.)
(Using default header. To add your own header create file "header" in the output dir.)
M3
(Header end.)
G21 (All units in mm)

(Start cutting path id: text1296)
(Change tool to Default tool)

G00 Z100.000000
G00 X44.458930 Y99.133689

G01 Z-0.625000 F100.0(Penetrate)
G01 X-33.090386 Y99.133689 Z-0.625000 F400.000000
G01 X-33.090386 Y86.853935 Z-0.625000
G01 X27.841219 Y11.506967 Z-0.625000
G01 X-30.821301 Y11.506967 Z-0.625000
G01 X-30.821301 Y-0.238886 Z-0.625000
G01 X42.990698 Y-0.238886 Z-0.625000
G01 X42.990698 Y11.707180 Z-0.625000
G01 X-18.541547 Y87.387838 Z-0.625000
G01 X44.458930 Y87.387838 Z-0.625000
G01 X44.458930 Y99.133689 Z-0.625000
G00 Z100.000000

(End cutting path id: text1296)


(Footer)
M5
G00 X0.0000 Y0.0000
M2
(Using default footer. To add your own footer create file "footer" in the output dir.)
(end)
%