%
(Header)
(Generated by gcodetools from Inkscape.)
(Using default header. To add your own header create file "header" in the output dir.)
M3
(Header end.)
G21 (All units in mm)

(Start cutting path id: text1)
(Change tool to Cone cutter)

G00 Z5.000000
G00 X100.195193 Y0.000172

G01 Z-1.000000 F100.0(Penetrate)
G01 X84.511819 Y0.000171 Z-1.000000 F400.000000
G01 X73.659818 Y27.925593 Z-1.000000
G01 X25.792085 Y27.925592 Z-1.000000
G01 X14.940084 Y0.000169 Z-1.000000
G01 X-0.000000 Y0.000169 Z-1.000000
G01 X40.286194 Y100.195239 Z-1.000000
G01 X59.908991 Y100.195240 Z-1.000000
G01 X100.195193 Y0.000172 Z-1.000000
G00 Z5.000000

(End cutting path id: text1)


(Start cutting path id: text1)
(Change tool to Cone cutter)

G00 Z5.000000
G00 X69.125762 Y39.364922

G01 Z-1.000000 F100.0(Penetrate)
G01 X49.725949 Y88.554039 Z-1.000000 F400.000000
G01 X30.251811 Y39.364921 Z-1.000000
G01 X69.125762 Y39.364922 Z-1.000000
G00 Z5.000000

(End cutting path id: text1)


(Footer)
M5
G00 X0.0000 Y0.0000
M2
(Using default footer. To add your own footer create file "footer" in the output dir.)
(end)
%