%
(Header)
(Generated by gcodetools from Inkscape.)
(Using default header. To add your own header create file "header" in the output dir.)
M3
(Header end.)
G21 (All units in mm)

(Start cutting path id: text1)
(Change tool to Cone cutter)

G00 Z5.000000
G00 X99.999612 Y30.759034

G01 Z-1.000000 F100.0(Penetrate)
G02 X99.002588 Y23.601900 Z-1.000000 I-26.187244 J-0.000000 F400.000000
G02 X96.259645 Y17.595862 Z-1.000000 I-21.030784 J5.975340
G02 X91.955100 Y12.481619 Z-1.000000 I-23.421571 J15.344776
G02 X86.197351 Y8.193596 Z-1.000000 I-22.049409 J23.597253
G02 X78.450844 Y4.447293 Z-1.000000 I-25.988398 J43.855963
G02 X69.723683 Y1.880644 Z-1.000000 I-20.387233 J53.200541
G02 X60.759670 Y0.568272 Z-1.000000 I-14.926048 J70.680727
G02 X47.016737 Y0.000191 Z-1.000000 I-13.742933 J165.949425
G01 X0.000001 Y0.000191 Z-1.000000
G01 X0.000001 Y100.000003 Z-1.000000
G01 X39.269662 Y100.000003 Z-1.000000
G02 X53.769326 Y99.731187 Z-1.000000 I0.000000 J-391.182252
G02 X60.997092 Y99.194095 Z-1.000000 I-3.621534 J-97.637163
G02 X68.099674 Y97.938571 Z-1.000000 I-6.291758 J-56.310568
G02 X74.799354 Y95.836143 Z-1.000000 I-12.694774 J-52.179600
G02 X81.524491 Y92.207093 Z-1.000000 I-11.913763 J-30.123707
G02 X85.395928 Y88.381489 Z-1.000000 I-9.454953 J-13.439942
G02 X87.793875 Y83.588612 Z-1.000000 I-12.920405 J-9.460569
G02 X88.690663 Y77.568884 Z-1.000000 I-19.755445 J-6.019728
G02 X87.430068 Y70.955135 Z-1.000000 I-17.979909 J-0.000000
G02 X83.882133 Y65.413098 Z-1.000000 I-15.971048 J6.317754
G02 X78.608262 Y61.151660 Z-1.000000 I-19.976499 J19.328383
G02 X71.059386 Y57.421172 Z-1.000000 I-22.674919 J36.381064
G01 X71.059386 Y56.883900 Z-1.000000
G02 X83.788873 Y53.275193 Z-1.000000 I-8.275458 J-53.446740
G02 X92.252536 Y47.951747 Z-1.000000 I-11.995255 J-28.460913
G02 X97.961292 Y40.244152 Z-1.000000 I-14.865799 J-16.978536
G02 X99.999612 Y30.759034 Z-1.000000 I-21.049869 J-9.485119
G01 X99.999612 Y30.759034 Z-1.000000
G00 Z5.000000

(End cutting path id: text1)


(Start cutting path id: text1)
(Change tool to Cone cutter)

G00 Z5.000000
G00 X81.655962 Y30.221761

G01 Z-1.000000 F100.0(Penetrate)
G03 X80.937963 Y36.046303 Z-1.000000 I-23.983907 J-0.000000 F400.000000
G03 X79.251697 Y39.825504 Z-1.000000 I-11.569083 J-2.896281
G03 X76.348713 Y42.762640 Z-1.000000 I-9.278049 J-6.266986
G03 X70.525105 Y45.869817 Z-1.000000 I-16.286712 J-23.514250
G03 X66.163128 Y47.166068 Z-1.000000 I-9.748663 J-24.817632
G03 X60.106624 Y48.018907 Z-1.000000 I-9.731349 J-47.176200
G03 X54.044424 Y48.397766 Z-1.000000 I-10.291949 J-115.992712
G03 X45.324847 Y48.556179 Z-1.000000 I-8.719577 J-239.898598
G01 X17.631276 Y48.556179 Z-1.000000
G01 X17.631276 Y11.350072 Z-1.000000
G01 X40.961551 Y11.350072 Z-1.000000
G03 X52.521990 Y11.616000 Z-1.000000 I-0.000000 J251.411685
G03 X59.928530 Y12.223137 Z-1.000000 I-4.774581 J103.725803
G03 X67.160276 Y13.677865 Z-1.000000 I-6.472524 J50.878828
G03 X72.038902 Y15.581090 Z-1.000000 I-6.906553 J24.908309
G03 X76.644365 Y18.630169 Z-1.000000 I-12.715694 J24.209033
G03 X79.340743 Y21.558246 Z-1.000000 I-8.995849 J10.989552
G03 X80.986626 Y25.124577 Z-1.000000 I-9.488000 J6.541726
G03 X81.655962 Y30.221761 Z-1.000000 I-19.073589 J5.097184
G01 X81.655962 Y30.221761 Z-1.000000
G00 Z5.000000

(End cutting path id: text1)


(Start cutting path id: text1)
(Change tool to Cone cutter)

G00 Z5.000000
G00 X70.347012 Y75.822749

G01 Z-1.000000 F100.0(Penetrate)
G03 X69.896464 Y79.316633 Z-1.000000 I-13.772353 J-0.000000 F400.000000
G03 X68.744168 Y81.934222 Z-1.000000 I-8.780380 J-2.302813
G03 X66.819478 Y84.039739 Z-1.000000 I-7.181704 J-4.632466
G03 X63.579451 Y85.963764 Z-1.000000 I-9.173151 J-11.757348
G03 X59.289813 Y87.346837 Z-1.000000 I-9.255347 J-21.361948
G03 X53.428110 Y88.180012 Z-1.000000 I-8.568856 J-39.248933
G03 X47.456461 Y88.510064 Z-1.000000 I-10.030669 J-127.297672
G03 X38.646333 Y88.650126 Z-1.000000 I-8.810128 J-277.016759
G01 X17.631276 Y88.650126 Z-1.000000
G01 X17.631276 Y59.771739 Z-1.000000
G01 X40.427270 Y59.771739 Z-1.000000
G03 X48.696976 Y59.961278 Z-1.000000 I-0.000000 J180.500929
G03 X53.606204 Y60.376170 Z-1.000000 I-2.933588 J63.963495
G03 X58.395720 Y61.406645 Z-1.000000 I-4.403541 J32.112859
G03 X62.688982 Y63.062531 Z-1.000000 I-8.110146 J27.420983
G03 X66.430081 Y65.541099 Z-1.000000 I-7.154083 J14.860880
G03 X68.566074 Y68.233777 Z-1.000000 I-6.390776 J7.263081
G03 X69.856308 Y71.583946 Z-1.000000 I-11.494927 J6.350519
G03 X70.347012 Y75.822749 Z-1.000000 I-18.062483 J4.238803
G01 X70.347012 Y75.822749 Z-1.000000
G00 Z5.000000

(End cutting path id: text1)


(Footer)
M5
G00 X0.0000 Y0.0000
M2
(Using default footer. To add your own footer create file "footer" in the output dir.)
(end)
%