%
(Header)
(Generated by gcodetools from Inkscape.)
(Using default header. To add your own header create file "header" in the output dir.)
M3
(Header end.)
G21 (All units in mm)

(Start cutting path id: text95)
(Change tool to Cone cutter)

G00 Z5.000000
G00 X99.999872 Y8.749166

G01 Z-1.000000 F100.0(Penetrate)
G03 X95.554208 Y7.172250 Z-1.000000 I160.432190 J-459.347887 F400.000000
G03 X91.902717 Y5.832770 Z-1.000000 I112.096102 J-311.226403
G02 X88.299467 Y4.599271 Z-1.000000 I-19.379477 J50.731008
G02 X82.510016 Y2.981181 Z-1.000000 I-39.303123 J129.458541
G02 X77.544224 Y1.884887 Z-1.000000 I-22.751279 J91.259810
G02 X71.740799 Y0.907298 Z-1.000000 I-23.819991 J123.691954
G02 X65.972408 Y0.247472 Z-1.000000 I-10.616639 J67.269295
G02 X59.028264 Y-0.000023 Z-1.000000 I-6.944144 J97.294855
G02 X46.016136 Y0.791386 Z-1.000000 I0.000000 J107.366636
G02 X35.141656 Y2.916373 Z-1.000000 I9.400263 J76.992421
G02 X24.932984 Y6.839361 Z-1.000000 I15.508918 J55.602740
G02 X16.518197 Y12.184035 Z-1.000000 I21.367215 J42.937631
G02 X9.683655 Y19.079854 Z-1.000000 I25.180918 J31.791973
G02 X4.372464 Y27.802964 Z-1.000000 I35.424785 J27.547343
G02 X1.206020 Y37.593403 Z-1.000000 I39.894894 J18.310157
G02 X-0.000000 Y49.902775 Z-1.000000 I62.215442 J12.309372
G02 X1.142268 Y61.583394 Z-1.000000 I60.293001 J0.000000
G02 X4.210520 Y71.224880 Z-1.000000 I43.962034 J-8.681275
G02 X9.372684 Y79.893313 Z-1.000000 I39.817325 J-17.840448
G02 X16.356254 Y87.103043 Z-1.000000 I34.301352 J-26.238241
G02 X24.535818 Y92.476914 Z-1.000000 I29.859021 J-36.536400
G02 X34.898741 Y96.694750 Z-1.000000 I28.332991 J-54.772746
G02 X45.962000 Y99.106704 Z-1.000000 I20.770549 J-68.692587
G02 X59.109236 Y100.000000 Z-1.000000 I13.147236 J-96.301659
G02 X68.780555 Y99.531470 Z-1.000000 I-0.000000 J-100.051244
G02 X78.461438 Y98.120544 Z-1.000000 I-9.873121 J-101.660603
G02 X88.029048 Y95.734228 Z-1.000000 I-17.555073 J-90.757855
G02 X99.999872 Y91.510043 Z-1.000000 I-44.950148 J-146.457255
G01 X99.999872 Y76.279968 Z-1.000000
G01 X98.785299 Y76.279968 Z-1.000000
G03 X88.480559 Y82.233125 Z-1.000000 I-49.774865 J-74.263655
G03 X79.028239 Y86.001292 Z-1.000000 I-28.856996 J-58.647301
G03 X69.109420 Y88.248816 Z-1.000000 I-19.228420 J-61.848530
G03 X58.056605 Y89.047307 Z-1.000000 I-11.052815 J-76.097976
G03 X49.010430 Y88.394120 Z-1.000000 I0.000000 J-62.968060
G03 X41.538408 Y86.649381 Z-1.000000 I6.474544 J-44.600105
G03 X34.631124 Y83.640379 Z-1.000000 I11.392743 J-35.584981
G03 X28.501988 Y79.325983 Z-1.000000 I18.111643 J-32.240636
G03 X23.628548 Y73.947433 Z-1.000000 I20.123792 J-23.131085
G03 X19.757060 Y67.012305 Z-1.000000 I29.934695 J-21.259023
G03 X17.532117 Y59.453780 Z-1.000000 I33.633729 J-14.007226
G03 X16.680140 Y49.902775 Z-1.000000 I53.109360 J-9.551006
G03 X17.639333 Y39.939637 Z-1.000000 I52.223177 J0.000000
G03 X20.080945 Y32.404391 Z-1.000000 I32.104619 J6.239522
G03 X24.201234 Y25.572039 Z-1.000000 I36.502268 J17.354345
G03 X28.987817 Y20.479565 Z-1.000000 I24.846707 J18.558463
G03 X35.026246 Y16.359600 Z-1.000000 I22.851407 J27.007080
G03 X42.186180 Y13.350595 Z-1.000000 I18.978294 J35.135847
G03 X49.883077 Y11.669028 Z-1.000000 I15.106657 J50.690491
G03 X58.218549 Y11.082286 Z-1.000000 I8.335472 J58.914966
G03 X69.669801 Y11.915735 Z-1.000000 I0.000000 J79.084468
G03 X79.918926 Y14.257918 Z-1.000000 I-9.601390 J65.610165
G03 X89.655451 Y18.202909 Z-1.000000 I-19.450372 J61.992661
G03 X98.866271 Y23.784816 Z-1.000000 I-30.676889 J61.011006
G01 X99.999872 Y23.784816 Z-1.000000
G01 X99.999872 Y8.749166 Z-1.000000
G00 Z5.000000

(End cutting path id: text95)


(Footer)
M5
G00 X0.0000 Y0.0000
M2
(Using default footer. To add your own footer create file "footer" in the output dir.)
(end)
%