%
(Header)
(Generated by gcodetools from Inkscape.)
(Using default header. To add your own header create file "header" in the output dir.)
M3
(Header end.)
G21 (All units in mm)

(Start cutting path id: text151)
(Change tool to Cone cutter)

G00 Z5.000000
G00 X99.999414 Y49.899224

G01 Z-1.000000 F100.0(Penetrate)
G02 X98.161812 Y36.802504 Z-1.000000 I-47.589429 J-0.000000 F400.000000
G02 X92.924733 Y25.184670 Z-1.000000 I-42.482045 J12.160726
G02 X84.751445 Y15.381284 Z-1.000000 I-41.039820 J25.906940
G02 X74.244394 Y7.991941 Z-1.000000 I-33.288491 J36.168795
G02 X65.903040 Y4.434799 Z-1.000000 I-26.966638 J51.677039
G02 X56.120491 Y1.880456 Z-1.000000 I-23.153329 J68.662318
G02 X46.129611 Y0.581383 Z-1.000000 I-16.232788 J85.774360
G02 X29.888525 Y0.000003 Z-1.000000 I-16.241086 J226.560052
G01 X-0.000017 Y0.000003 Z-1.000000
G01 X-0.000017 Y99.999922 Z-1.000000
G01 X29.570562 Y99.999922 Z-1.000000
G02 X46.829232 Y99.326670 Z-1.000000 I0.000000 J-221.547657
G02 X57.074380 Y97.850830 Z-1.000000 I-6.198529 J-79.328035
G02 X67.115877 Y95.168691 Z-1.000000 I-17.043754 J-83.947004
G02 X74.403375 Y92.075147 Z-1.000000 I-15.715173 J-47.150805
G02 X85.329789 Y84.440956 Z-1.000000 I-25.157193 J-47.642456
G02 X93.242695 Y75.083891 Z-1.000000 I-30.498725 J-33.815940
G02 X98.149481 Y63.933769 Z-1.000000 I-33.833272 J-21.543577
G02 X99.999414 Y49.899224 Z-1.000000 I-52.311683 J-14.034545
G01 X99.999414 Y49.899224 Z-1.000000
G00 Z5.000000

(End cutting path id: text151)


(Start cutting path id: text151)
(Change tool to Cone cutter)

G00 Z5.000000
G00 X83.544818 Y50.100701

G01 Z-1.000000 F100.0(Penetrate)
G03 X82.173408 Y61.472780 Z-1.000000 I-47.835786 J0.000000 F400.000000
G03 X78.695879 Y69.912640 Z-1.000000 I-29.508178 J-7.222077
G03 X72.863036 Y76.892139 Z-1.000000 I-25.325137 J-15.237455
G03 X64.228552 Y82.605712 Z-1.000000 I-25.255909 J-28.786214
G03 X57.064198 Y85.424737 Z-1.000000 I-22.941911 J-47.791889
G03 X49.363772 Y87.239691 Z-1.000000 I-16.660134 J-53.442024
G03 X41.461190 Y88.193490 Z-1.000000 I-13.688612 J-80.200443
G03 X30.524451 Y88.582873 Z-1.000000 I-10.936739 J-153.397515
G01 X15.739162 Y88.582873 Z-1.000000
G01 X15.739162 Y11.417052 Z-1.000000
G01 X30.524451 Y11.417052 Z-1.000000
G03 X41.858120 Y11.820324 Z-1.000000 I0.000000 J159.463837
G03 X50.317661 Y12.827393 Z-1.000000 I-6.395656 J89.758817
G03 X58.598950 Y14.892045 Z-1.000000 I-8.733577 J52.670637
G03 X65.897859 Y18.065805 Z-1.000000 I-14.796816 J44.009014
G03 X73.780635 Y23.789929 Z-1.000000 I-17.513717 J32.408203
G03 X79.093333 Y30.624558 Z-1.000000 I-20.053312 J21.070001
G03 X82.264725 Y38.754949 Z-1.000000 I-25.828993 J14.758745
G03 X83.544818 Y50.100701 Z-1.000000 I-49.639951 J11.345752
G01 X83.544818 Y50.100701 Z-1.000000
G00 Z5.000000

(End cutting path id: text151)


(Footer)
M5
G00 X0.0000 Y0.0000
M2
(Using default footer. To add your own footer create file "footer" in the output dir.)
(end)
%