%
(Header)
(Generated by gcodetools from Inkscape.)
(Using default header. To add your own header create file "header" in the output dir.)
M3
(Header end.)
G21 (All units in mm)

(Start cutting path id: text191)
(Change tool to Cone cutter)

G00 Z5.000000
G00 X100.000648 Y0.000028

G01 Z-1.000000 F100.0(Penetrate)
G01 X0.000058 Y0.000028 Z-1.000000 F400.000000
G01 X0.000058 Y100.000256 Z-1.000000
G01 X100.000648 Y100.000256 Z-1.000000
G01 X100.000648 Y88.180215 Z-1.000000
G01 X20.183664 Y88.180215 Z-1.000000
G01 X20.183664 Y60.779212 Z-1.000000
G01 X100.000648 Y60.779212 Z-1.000000
G01 X100.000648 Y48.959171 Z-1.000000
G01 X20.183664 Y48.959171 Z-1.000000
G01 X20.183664 Y11.820063 Z-1.000000
G01 X100.000648 Y11.820063 Z-1.000000
G01 X100.000648 Y0.000028 Z-1.000000
G00 Z5.000000

(End cutting path id: text191)


(Footer)
M5
G00 X0.0000 Y0.0000
M2
(Using default footer. To add your own footer create file "footer" in the output dir.)
(end)
%