%
(Header)
(Generated by gcodetools from Inkscape.)
(Using default header. To add your own header create file "header" in the output dir.)
M3
(Header end.)
G21 (All units in mm)

(Start cutting path id: text203)
(Change tool to Cone cutter)

G00 Z5.000000
G00 X100.000523 Y88.180196

G01 Z-1.000000 F100.0(Penetrate)
G01 X20.820344 Y88.180196 Z-1.000000 F400.000000
G01 X20.820344 Y59.973268 Z-1.000000
G01 X88.854309 Y59.973268 Z-1.000000
G01 X88.854309 Y48.153222 Z-1.000000
G01 X20.820344 Y48.153222 Z-1.000000
G01 X20.820344 Y-0.000035 Z-1.000000
G01 X0.000059 Y-0.000035 Z-1.000000
G01 X0.000059 Y100.000242 Z-1.000000
G01 X100.000523 Y100.000242 Z-1.000000
G01 X100.000523 Y88.180196 Z-1.000000
G00 Z5.000000

(End cutting path id: text203)


(Footer)
M5
G00 X0.0000 Y0.0000
M2
(Using default footer. To add your own footer create file "footer" in the output dir.)
(end)
%