%
(Header)
(Generated by gcodetools from Inkscape.)
(Using default header. To add your own header create file "header" in the output dir.)
M3
(Header end.)
G21 (All units in mm)

(Start cutting path id: text212)
(Change tool to Cone cutter)

G00 Z5.000000
G00 X100.000148 Y8.996726

G01 Z-1.000000 F100.0(Penetrate)
G02 X90.700800 Y5.702351 Z-1.000000 I-51.592842 J130.863776 F400.000000
G02 X79.879545 Y2.653686 Z-1.000000 I-54.922411 J174.218024
G02 X68.951505 Y0.634644 Z-1.000000 I-23.111288 J94.506100
G02 X58.854645 Y-0.000043 Z-1.000000 I-10.096859 J79.995157
G02 X45.858921 Y0.836254 Z-1.000000 I0.000000 J101.392261
G02 X34.815422 Y3.106755 Z-1.000000 I9.740883 J75.371241
G02 X24.380213 Y7.161693 Z-1.000000 I16.377757 J57.602202
G02 X16.201981 Y12.427149 Z-1.000000 I20.239456 J40.419531
G02 X9.383789 Y19.432772 Z-1.000000 I25.928959 J32.055943
G02 X4.220048 Y28.090587 Z-1.000000 I34.822143 J26.637609
G02 X1.172109 Y37.790258 Z-1.000000 I40.264547 J17.981089
G02 X-0.000003 Y50.161796 Z-1.000000 I64.704138 J12.371538
G02 X4.345195 Y71.260188 Z-1.000000 I53.394908 J0.000000
G02 X15.674474 Y86.601944 Z-1.000000 I38.447370 J-16.537870
G02 X32.872801 Y96.061761 Z-1.000000 I31.693740 J-37.256962
G02 X58.854645 Y100.000009 Z-1.000000 I25.981845 J-83.736011
G02 X68.376378 Y99.511866 Z-1.000000 I0.000000 J-93.109689
G02 X78.372383 Y97.993536 Z-1.000000 I-10.707871 J-104.159568
G02 X88.236299 Y95.520235 Z-1.000000 I-17.815301 J-91.956318
G02 X99.924790 Y91.326866 Z-1.000000 I-41.273675 J-133.431988
G01 X99.924790 Y76.116502 Z-1.000000
G01 X98.568344 Y76.116502 Z-1.000000
G03 X96.198804 Y77.615551 Z-1.000000 I-34.130289 J-51.327316
G03 X91.786119 Y80.194174 Z-1.000000 I-105.525137 J-175.515679
G03 X87.265358 Y82.561900 Z-1.000000 I-37.165776 J-65.461897
G03 X83.044584 Y84.401296 Z-1.000000 I-26.571764 J-55.210657
G03 X77.770633 Y86.150090 Z-1.000000 I-20.803440 J-53.911398
G03 X71.213367 Y87.702268 Z-1.000000 I-22.840380 J-81.863605
G03 X64.618399 Y88.683049 Z-1.000000 I-11.923368 J-57.511812
G03 X56.292470 Y89.061492 Z-1.000000 I-8.325929 J-91.398009
G03 X38.645214 Y86.068898 Z-1.000000 I0.000000 J-53.529018
G03 X26.450678 Y78.640775 Z-1.000000 I11.230333 J-32.160289
G03 X18.603114 Y66.960621 Z-1.000000 I22.116551 J-23.335837
G03 X15.523758 Y50.550146 Z-1.000000 I42.187607 J-16.410475
G03 X18.795493 Y33.291241 Z-1.000000 I47.157550 J-0.000000
G03 X26.978184 Y21.423917 Z-1.000000 I29.552146 J11.621925
G03 X39.589374 Y14.072237 Z-1.000000 I23.783698 J26.306376
G03 X58.176422 Y11.067925 Z-1.000000 I18.587048 J55.994941
G03 X65.384588 Y11.375299 Z-1.000000 I-0.000000 J84.672479
G03 X72.569813 Y12.297698 Z-1.000000 I-7.267177 J85.055766
G03 X79.732499 Y13.801328 Z-1.000000 I-15.916437 J93.631376
G03 X85.229967 Y15.469222 Z-1.000000 I-14.220188 J56.764455
G01 X85.229967 Y39.093829 Z-1.000000
G01 X55.162100 Y39.093829 Z-1.000000
G01 X55.162100 Y50.355971 Z-1.000000
G01 X100.000148 Y50.355971 Z-1.000000
G01 X100.000148 Y8.996726 Z-1.000000
G00 Z5.000000

(End cutting path id: text212)


(Footer)
M5
G00 X0.0000 Y0.0000
M2
(Using default footer. To add your own footer create file "footer" in the output dir.)
(end)
%