%
(Header)
(Generated by gcodetools from Inkscape.)
(Using default header. To add your own header create file "header" in the output dir.)
M3
(Header end.)
G21 (All units in mm)

(Start cutting path id: text258)
(Change tool to Cone cutter)

G00 Z5.000000
G00 X100.000385 Y-0.000004

G01 Z-1.000000 F100.0(Penetrate)
G01 X82.616652 Y-0.000004 Z-1.000000 F400.000000
G01 X82.616652 Y48.959057 Z-1.000000
G01 X17.383751 Y48.959057 Z-1.000000
G01 X17.383751 Y-0.000004 Z-1.000000
G01 X0.000017 Y-0.000004 Z-1.000000
G01 X0.000017 Y100.000049 Z-1.000000
G01 X17.383751 Y100.000049 Z-1.000000
G01 X17.383751 Y60.779076 Z-1.000000
G01 X82.616652 Y60.779076 Z-1.000000
G01 X82.616652 Y100.000049 Z-1.000000
G01 X100.000385 Y100.000049 Z-1.000000
G01 X100.000385 Y-0.000004 Z-1.000000
G00 Z5.000000

(End cutting path id: text258)


(Footer)
M5
G00 X0.0000 Y0.0000
M2
(Using default footer. To add your own footer create file "footer" in the output dir.)
(end)
%