%
(Header)
(Generated by gcodetools from Inkscape.)
(Using default header. To add your own header create file "header" in the output dir.)
M3
(Header end.)
G21 (All units in mm)

(Start cutting path id: text269)
(Change tool to Cone cutter)

G00 Z5.000000
G00 X99.999800 Y0.000054

G01 Z-1.000000 F100.0(Penetrate)
G01 X0.000017 Y0.000054 Z-1.000000 F400.000000
G01 X0.000017 Y10.208250 Z-1.000000
G01 X33.163211 Y10.208250 Z-1.000000
G01 X33.163211 Y89.791847 Z-1.000000
G01 X0.000017 Y89.791847 Z-1.000000
G01 X0.000017 Y100.000038 Z-1.000000
G01 X99.999800 Y100.000038 Z-1.000000
G01 X99.999800 Y89.791847 Z-1.000000
G01 X66.836606 Y89.791847 Z-1.000000
G01 X66.836606 Y10.208250 Z-1.000000
G01 X99.999800 Y10.208250 Z-1.000000
G01 X99.999800 Y0.000054 Z-1.000000
G00 Z5.000000

(End cutting path id: text269)


(Footer)
M5
G00 X0.0000 Y0.0000
M2
(Using default footer. To add your own footer create file "footer" in the output dir.)
(end)
%