%
(Header)
(Generated by gcodetools from Inkscape.)
(Using default header. To add your own header create file "header" in the output dir.)
M3
(Header end.)
G21 (All units in mm)

(Start cutting path id: text280)
(Change tool to Cone cutter)

G00 Z5.000000
G00 X99.999901 Y27.019847

G01 Z-1.000000 F100.0(Penetrate)
G02 X96.159061 Y16.614558 Z-1.000000 I-16.015003 J0.000000 F400.000000
G02 X82.905898 Y7.019907 Z-1.000000 I-26.491730 J22.642551
G02 X65.525012 Y2.158946 Z-1.000000 I-28.862829 J69.698044
G02 X37.321889 Y0.000057 Z-1.000000 I-28.203123 J183.139458
G02 X30.487207 Y0.111733 Z-1.000000 I-0.000000 J209.200045
G02 X19.088288 Y0.596077 Z-1.000000 I19.040418 J582.489407
G02 X7.702001 Y1.255702 Z-1.000000 I23.210537 J499.258669
G02 X-0.000016 Y1.920578 Z-1.000000 I15.894625 J229.068566
G01 X-0.000016 Y14.172203 Z-1.000000
G01 X1.566934 Y14.172203 Z-1.000000
G03 X7.417340 Y13.317498 Z-1.000000 I37.484451 J236.128798
G03 X15.954387 Y12.251675 Z-1.000000 I66.979710 J501.772270
G03 X24.516086 Y11.512082 Z-1.000000 I16.797562 J144.526452
G03 X33.475739 Y11.258301 Z-1.000000 I8.959653 J158.032409
G03 X46.542011 Y11.694680 Z-1.000000 I-0.000000 J195.836630
G03 X54.273442 Y12.649029 Z-1.000000 I-4.639288 J69.378480
G03 X61.868884 Y14.618132 Z-1.000000 I-8.801271 J49.582776
G03 X65.811894 Y16.622523 Z-1.000000 I-5.210497 J15.130527
G03 X69.024335 Y19.715222 Z-1.000000 I-7.780003 J11.295984
G03 X70.655197 Y23.112573 Z-1.000000 I-7.850882 J5.858845
G03 X71.475909 Y26.999935 Z-1.000000 I-23.728087 J7.039866
G03 X71.794796 Y31.986724 Z-1.000000 I-38.832524 J4.986789
G01 X71.794796 Y89.536239 Z-1.000000
G01 X26.923038 Y89.536239 Z-1.000000
G01 X26.923038 Y99.999787 Z-1.000000
G01 X99.999901 Y99.999787 Z-1.000000
G01 X99.999901 Y27.019847 Z-1.000000
G00 Z5.000000

(End cutting path id: text280)


(Footer)
M5
G00 X0.0000 Y0.0000
M2
(Using default footer. To add your own footer create file "footer" in the output dir.)
(end)
%