%
(Header)
(Generated by gcodetools from Inkscape.)
(Using default header. To add your own header create file "header" in the output dir.)
M3
(Header end.)
G21 (All units in mm)

(Start cutting path id: text306)
(Change tool to Cone cutter)

G00 Z5.000000
G00 X0.000031 Y0.000020

G01 Z-1.000000 F100.0(Penetrate)
G01 X0.000031 Y100.000266 Z-1.000000 F400.000000
G01 X16.006601 Y100.000266 Z-1.000000
G01 X16.006601 Y50.409420 Z-1.000000
G01 X76.072494 Y100.000266 Z-1.000000
G01 X97.772123 Y100.000266 Z-1.000000
G01 X47.029645 Y59.481748 Z-1.000000
G01 X99.999842 Y0.000020 Z-1.000000
G01 X78.877769 Y0.000020 Z-1.000000
G01 X35.808544 Y50.614059 Z-1.000000
G01 X16.006601 Y34.652219 Z-1.000000
G01 X16.006601 Y0.000020 Z-1.000000
G01 X0.000031 Y0.000020 Z-1.000000
G00 Z5.000000

(End cutting path id: text306)


(Footer)
M5
G00 X0.0000 Y0.0000
M2
(Using default footer. To add your own footer create file "footer" in the output dir.)
(end)
%