%
(Header)
(Generated by gcodetools from Inkscape.)
(Using default header. To add your own header create file "header" in the output dir.)
M3
(Header end.)
G21 (All units in mm)

(Start cutting path id: text322)
(Change tool to Cone cutter)

G00 Z5.000000
G00 X99.999990 Y-0.000043

G01 Z-1.000000 F100.0(Penetrate)
G01 X85.067868 Y-0.000043 Z-1.000000 F400.000000
G01 X85.067868 Y86.165379 Z-1.000000
G01 X53.846158 Y27.535283 Z-1.000000
G01 X44.947216 Y27.535283 Z-1.000000
G01 X13.951750 Y86.165379 Z-1.000000
G01 X13.951750 Y-0.000043 Z-1.000000
G01 X0.000019 Y-0.000043 Z-1.000000
G01 X0.000019 Y100.000201 Z-1.000000
G01 X20.362004 Y100.000201 Z-1.000000
G01 X50.301664 Y44.325116 Z-1.000000
G01 X79.260932 Y100.000201 Z-1.000000
G01 X99.999990 Y100.000201 Z-1.000000
G01 X99.999990 Y-0.000043 Z-1.000000
G00 Z5.000000

(End cutting path id: text322)


(Footer)
M5
G00 X0.0000 Y0.0000
M2
(Using default footer. To add your own footer create file "footer" in the output dir.)
(end)
%