%
(Header)
(Generated by gcodetools from Inkscape.)
(Using default header. To add your own header create file "header" in the output dir.)
M3
(Header end.)
G21 (All units in mm)

(Start cutting path id: text334)
(Change tool to Cone cutter)

G00 Z5.000000
G00 X100.000106 Y-0.000040

G01 Z-1.000000 F100.0(Penetrate)
G01 X78.433171 Y-0.000040 Z-1.000000 F400.000000
G01 X16.285189 Y89.455784 Z-1.000000
G01 X16.285189 Y-0.000040 Z-1.000000
G01 X-0.000048 Y-0.000040 Z-1.000000
G01 X-0.000048 Y99.999752 Z-1.000000
G01 X27.024642 Y99.999752 Z-1.000000
G01 X83.714869 Y18.334375 Z-1.000000
G01 X83.714869 Y99.999752 Z-1.000000
G01 X100.000106 Y99.999752 Z-1.000000
G01 X100.000106 Y-0.000040 Z-1.000000
G00 Z5.000000

(End cutting path id: text334)


(Footer)
M5
G00 X0.0000 Y0.0000
M2
(Using default footer. To add your own footer create file "footer" in the output dir.)
(end)
%