%
(Header)
(Generated by gcodetools from Inkscape.)
(Using default header. To add your own header create file "header" in the output dir.)
M3
(Header end.)
G21 (All units in mm)

(Start cutting path id: text343)
(Change tool to Cone cutter)

G00 Z5.000000
G00 X86.406555 Y86.976089

G01 Z-1.000000 F100.0(Penetrate)
G02 X92.098941 Y79.952827 Z-1.000000 I-27.701660 J-28.270807 F400.000000
G02 X96.457191 Y71.179845 Z-1.000000 I-39.208355 J-24.947000
G02 X99.031003 Y61.653548 Z-1.000000 I-46.973440 J-17.802112
G02 X100.000222 Y49.967745 Z-1.000000 I-69.962820 J-11.685803
G02 X99.014895 Y38.287154 Z-1.000000 I-69.726630 J0.000000
G02 X96.384885 Y28.691171 Z-1.000000 I-49.527119 J8.415698
G02 X91.973826 Y19.912283 Z-1.000000 I-44.522620 J16.873294
G02 X86.406555 Y13.088351 Z-1.000000 I-32.230332 J20.611971
G02 X79.211722 Y7.440846 Z-1.000000 I-29.340898 J29.973045
G02 X70.643685 Y3.288234 Z-1.000000 I-23.997884 J38.599085
G02 X61.445461 Y0.907148 Z-1.000000 I-17.012260 J46.761901
G02 X49.963958 Y0.000031 Z-1.000000 I-11.481503 J72.207935
G02 X38.768914 Y0.901637 Z-1.000000 I-0.000000 J69.953984
G02 X29.284229 Y3.352710 Z-1.000000 I8.517033 J52.534082
G02 X20.570666 Y7.566270 Z-1.000000 I16.050774 J44.309231
G02 X13.521360 Y13.088351 Z-1.000000 I21.197156 J34.320085
G02 X7.873193 Y20.034169 Z-1.000000 I27.959084 J28.505013
G02 X3.470723 Y28.755646 Z-1.000000 I40.022793 J25.674791
G02 X0.955328 Y38.212696 Z-1.000000 I46.947313 J17.550137
G02 X-0.000001 Y49.967745 Z-1.000000 I71.843602 J11.755050
G02 X0.948246 Y61.530652 Z-1.000000 I70.973123 J-0.000000
G02 X3.470723 Y70.986421 Z-1.000000 I49.826116 J-8.227572
G02 X7.821790 Y79.769873 Z-1.000000 I44.064592 J-16.358896
G02 X13.593667 Y86.976089 Z-1.000000 I35.234354 J-22.306617
G02 X20.511913 Y92.413353 Z-1.000000 I26.833832 J-27.022799
G02 X29.356536 Y96.647259 Z-1.000000 I24.732658 J-40.311322
G02 X38.981163 Y99.112357 Z-1.000000 I18.554018 J-52.419995
G02 X49.963958 Y99.999931 Z-1.000000 I10.982794 J-67.506474
G02 X61.365174 Y99.067516 Z-1.000000 I-0.000000 J-70.171011
G02 X70.715993 Y96.582785 Z-1.000000 I-8.156125 J-49.531436
G02 X79.441756 Y92.384286 Z-1.000000 I-16.367214 J-45.182720
G02 X86.406555 Y86.976089 Z-1.000000 I-20.808693 J-33.986724
G01 X86.406555 Y86.976089 Z-1.000000
G00 Z5.000000

(End cutting path id: text343)


(Start cutting path id: text343)
(Change tool to Cone cutter)

G00 Z5.000000
G00 X85.105033 Y49.967745

G01 Z-1.000000 F100.0(Penetrate)
G03 X82.307531 Y67.566753 Z-1.000000 I-56.756187 J0.000000 F400.000000
G03 X75.705158 Y78.787832 Z-1.000000 I-28.802325 J-9.394083
G03 X65.048396 Y86.104812 Z-1.000000 I-21.395583 J-19.742467
G03 X50.036264 Y88.974798 Z-1.000000 I-15.012132 J-37.827241
G03 X34.884592 Y86.093227 Z-1.000000 I-0.000000 J-41.275513
G03 X24.222758 Y78.787832 Z-1.000000 I10.639921 J-26.961281
G03 X17.674331 Y67.580132 Z-1.000000 I22.292749 J-20.542096
G03 X14.895188 Y49.967745 Z-1.000000 I54.418297 J-17.612386
G03 X17.746371 Y32.214215 Z-1.000000 I56.698749 J0.000000
G03 X24.439678 Y21.018710 Z-1.000000 I28.336297 J9.342471
G03 X35.180635 Y13.822355 Z-1.000000 I21.607701 J20.636776
G03 X50.036264 Y11.025168 Z-1.000000 I14.855629 J38.049911
G03 X64.883142 Y13.828082 Z-1.000000 I0.000000 J40.722991
G03 X75.560544 Y21.018710 Z-1.000000 I-10.777292 J27.526040
G03 X82.253850 Y32.214215 Z-1.000000 I-21.642991 J20.537975
G03 X85.105033 Y49.967745 Z-1.000000 I-53.847572 J17.753530
G01 X85.105033 Y49.967745 Z-1.000000
G00 Z5.000000

(End cutting path id: text343)


(Footer)
M5
G00 X0.0000 Y0.0000
M2
(Using default footer. To add your own footer create file "footer" in the output dir.)
(end)
%