%
(Header)
(Generated by gcodetools from Inkscape.)
(Using default header. To add your own header create file "header" in the output dir.)
M3
(Header end.)
G21 (All units in mm)

(Start cutting path id: text393)
(Change tool to Cone cutter)

G00 Z5.000000
G00 X99.999302 Y69.778249

G01 Z-1.000000 F100.0(Penetrate)
G02 X99.089602 Y63.391990 Z-1.000000 I-22.871213 J0.000000 F400.000000
G02 X96.405895 Y57.420993 Z-1.000000 I-22.617656 J6.577061
G02 X92.358123 Y52.322829 Z-1.000000 I-23.722628 J14.678996
G02 X86.549697 Y47.615779 Z-1.000000 I-25.951389 J26.086329
G02 X78.297649 Y43.244493 Z-1.000000 I-27.781264 J42.470367
G02 X67.863985 Y39.825334 Z-1.000000 I-26.997315 J64.754204
G02 X56.994503 Y38.037855 Z-1.000000 I-18.280277 J77.218700
G02 X40.656770 Y37.273292 Z-1.000000 I-16.337733 J174.175906
G01 X20.328358 Y37.273292 Z-1.000000
G01 X20.328358 Y0.000048 Z-1.000000
G01 X-0.000052 Y0.000048 Z-1.000000
G01 X-0.000052 Y99.999800 Z-1.000000
G01 X41.478120 Y99.999800 Z-1.000000
G02 X55.199229 Y99.545596 Z-1.000000 I0.000000 J-207.478457
G02 X64.783924 Y98.455143 Z-1.000000 I-6.774497 J-102.213692
G02 X74.174090 Y96.432964 Z-1.000000 I-12.542839 J-81.056926
G02 X81.724266 Y93.754012 Z-1.000000 I-15.257265 J-54.978969
G02 X89.863226 Y89.146981 Z-1.000000 I-18.502235 J-42.179582
G02 X95.173871 Y84.217434 Z-1.000000 I-15.991701 J-22.553379
G02 X98.658869 Y78.018285 Z-1.000000 I-14.407353 J-12.178594
G02 X99.999302 Y69.778249 Z-1.000000 I-24.656742 J-8.240036
G01 X99.999302 Y69.778249 Z-1.000000
G00 Z5.000000

(End cutting path id: text393)


(Start cutting path id: text393)
(Change tool to Cone cutter)

G00 Z5.000000
G00 X78.849541 Y69.442454

G01 Z-1.000000 F100.0(Penetrate)
G03 X78.107341 Y74.373187 Z-1.000000 I-16.749516 J0.000000 F400.000000
G03 X76.077485 Y78.441761 Z-1.000000 I-13.310103 J-4.099911
G03 X72.852957 Y81.703719 Z-1.000000 I-12.197170 J-8.832467
G03 X67.658648 Y84.687548 Z-1.000000 I-15.304478 J-20.629250
G03 X62.628591 Y86.398207 Z-1.000000 I-14.390450 J-34.063398
G03 X56.365087 Y87.642543 Z-1.000000 I-13.522667 J-51.681662
G03 X50.081078 Y88.298543 Z-1.000000 I-10.425839 J-69.445895
G03 X40.451431 Y88.582769 Z-1.000000 I-9.629646 J-162.985073
G01 X20.328358 Y88.582769 Z-1.000000
G01 X20.328358 Y48.623163 Z-1.000000
G01 X37.474038 Y48.623163 Z-1.000000
G03 X49.755048 Y49.055196 Z-1.000000 I0.000000 J174.766492
G03 X57.494442 Y50.033503 Z-1.000000 I-4.949111 J70.254856
G03 X64.951085 Y52.112932 Z-1.000000 I-8.863286 J46.192071
G03 X70.020030 Y54.667473 Z-1.000000 I-8.774659 J23.717837
G03 X74.420483 Y58.280386 Z-1.000000 I-16.084883 J24.077343
G03 X76.796167 Y61.450533 Z-1.000000 I-9.917313 J9.907192
G03 X78.307563 Y65.155081 Z-1.000000 I-12.792142 J7.379575
G03 X78.849541 Y69.442454 Z-1.000000 I-16.686847 J4.287373
G01 X78.849541 Y69.442454 Z-1.000000
G00 Z5.000000

(End cutting path id: text393)


(Footer)
M5
G00 X0.0000 Y0.0000
M2
(Using default footer. To add your own footer create file "footer" in the output dir.)
(end)
%