%
(Header)
(Generated by gcodetools from Inkscape.)
(Using default header. To add your own header create file "header" in the output dir.)
M3
(Header end.)
G21 (All units in mm)

(Start cutting path id: text436)
(Change tool to Cone cutter)

G00 Z5.000000
G00 X100.000092 Y1.463609

G01 Z-1.000000 F100.0(Penetrate)
G02 X95.739109 Y0.792973 Z-1.000000 I-14.784446 J80.063516 F400.000000
G02 X91.578290 Y0.365851 Z-1.000000 I-9.895145 J75.913809
G02 X87.469380 Y0.093581 Z-1.000000 I-8.038819 J90.175743
G02 X83.156487 Y-0.000071 Z-1.000000 I-4.312893 J99.262487
G02 X71.291350 Y1.478980 Z-1.000000 I-0.000000 J48.331348
G02 X63.340481 Y5.018244 Z-1.000000 I6.285960 J24.821598
G02 X57.744939 Y11.047449 Z-1.000000 I9.873733 J14.774684
G02 X55.272535 Y19.289078 Z-1.000000 I16.926971 J9.569581
G02 X53.571108 Y19.117587 Z-1.000000 I-4.741205 J38.513341
G02 X51.946277 Y19.027707 Z-1.000000 I-2.752763 J35.032222
G02 X50.388449 Y18.948666 Z-1.000000 I-3.195396 J47.587239
G02 X48.903104 Y18.923159 Z-1.000000 I-1.485346 J43.235382
G02 X37.899171 Y19.658754 Z-1.000000 I0.000000 J82.672986
G02 X28.662468 Y21.641413 Z-1.000000 I8.074437 J60.123800
G02 X20.006716 Y25.120842 Z-1.000000 I14.802481 J49.330170
G02 X13.234292 Y29.534802 Z-1.000000 I17.614542 J34.428842
G02 X7.612053 Y35.289949 Z-1.000000 I22.152231 J27.264424
G02 X3.397060 Y42.237410 Z-1.000000 I28.333158 J21.941939
G02 X0.926483 Y49.964246 Z-1.000000 I32.372227 J14.609079
G02 X0.000031 Y59.435589 Z-1.000000 I47.950671 J9.471343
G02 X0.919515 Y68.751610 Z-1.000000 I47.653733 J0.000000
G02 X3.397060 Y76.476947 Z-1.000000 I35.100713 J-6.996988
G02 X7.561523 Y83.472577 Z-1.000000 I32.199991 J-14.431135
G02 X13.305064 Y89.440925 Z-1.000000 I29.020160 J-22.179291
G02 X19.946104 Y93.785114 Z-1.000000 I23.156289 J-28.151209
G02 X28.733240 Y97.282041 Z-1.000000 I23.456162 J-46.152337
G02 X38.108268 Y99.276168 Z-1.000000 I17.847243 J-60.871024
G02 X48.903104 Y100.000294 Z-1.000000 I10.794835 J-80.099359
G02 X60.111919 Y99.239362 Z-1.000000 I0.000000 J-82.935466
G02 X69.214511 Y97.229767 Z-1.000000 I-7.716874 J-56.574269
G02 X77.879799 Y93.764273 Z-1.000000 I-15.101679 J-50.327274
G02 X84.571916 Y89.440925 Z-1.000000 I-17.321246 J-34.152628
G02 X90.239109 Y83.619562 Z-1.000000 I-21.932144 J-27.020536
G02 X94.409148 Y76.633770 Z-1.000000 I-27.676759 J-21.258640
G02 X96.937326 Y68.849287 Z-1.000000 I-32.415757 J-14.830495
G02 X97.876949 Y59.435589 Z-1.000000 I-46.686218 J-9.413698
G02 X95.708918 Y45.933295 Z-1.000000 I-43.129539 J-0.000000
G02 X89.950547 Y35.389502 Z-1.000000 I-31.612842 J10.420659
G02 X80.973385 Y27.288544 Z-1.000000 I-29.633716 J23.814367
G02 X68.789882 Y21.693686 Z-1.000000 I-25.392835 J39.233097
G03 X70.021646 Y16.174559 Z-1.000000 I16.490558 J0.783361
G03 X72.611540 Y12.441167 Z-1.000000 I9.851444 J4.069038
G03 X76.590629 Y10.267835 Z-1.000000 I6.252482 J6.718218
G03 X85.491944 Y9.147903 Z-1.000000 I8.901315 J34.814254
G03 X88.381431 Y9.290573 Z-1.000000 I-0.000000 J29.331705
G03 X92.356775 Y9.827468 Z-1.000000 I-5.555480 J56.120390
G03 X96.370690 Y10.541826 Z-1.000000 I-14.328849 J92.146600
G03 X98.089264 Y10.977496 Z-1.000000 I-3.468748 J17.290494
G01 X100.000092 Y10.977496 Z-1.000000
G01 X100.000092 Y1.463609 Z-1.000000
G00 Z5.000000

(End cutting path id: text436)


(Start cutting path id: text436)
(Change tool to Cone cutter)

G00 Z5.000000
G00 X83.298030 Y59.435589

G01 Z-1.000000 F100.0(Penetrate)
G03 X80.646522 Y73.407177 Z-1.000000 I-38.135986 J0.000000 F400.000000
G03 X74.097741 Y82.802114 Z-1.000000 I-23.011945 J-9.060677
G03 X63.977126 Y88.658567 Z-1.000000 I-19.005731 J-21.171049
G03 X48.973875 Y91.061422 Z-1.000000 I-15.003251 J-45.638166
G03 X33.832603 Y88.649373 Z-1.000000 I-0.000000 J-48.729540
G03 X23.708467 Y82.802114 Z-1.000000 I8.804123 J-26.932010
G03 X17.213997 Y73.420617 Z-1.000000 I16.515276 J-18.371617
G03 X14.578950 Y59.435589 Z-1.000000 I35.793953 J-13.985028
G03 X17.279710 Y45.346708 Z-1.000000 I38.098654 J0.000000
G03 X23.920781 Y35.964517 Z-1.000000 I22.727465 J9.045864
G03 X34.135918 Y30.201762 Z-1.000000 I19.260925 J22.207053
G03 X48.973875 Y27.862031 Z-1.000000 I14.837957 J45.879344
G03 X63.804857 Y30.206964 Z-1.000000 I-0.000000 J48.073168
G03 X73.956198 Y35.964517 Z-1.000000 I-8.959443 J27.624572
G03 X80.597270 Y45.346709 Z-1.000000 I-16.086393 J18.428057
G03 X83.298030 Y59.435589 Z-1.000000 I-35.397889 J14.088881
G01 X83.298030 Y59.435589 Z-1.000000
G00 Z5.000000

(End cutting path id: text436)


(Footer)
M5
G00 X0.0000 Y0.0000
M2
(Using default footer. To add your own footer create file "footer" in the output dir.)
(end)
%