%
(Header)
(Generated by gcodetools from Inkscape.)
(Using default header. To add your own header create file "header" in the output dir.)
M3
(Header end.)
G21 (All units in mm)

(Start cutting path id: text504)
(Change tool to Cone cutter)

G00 Z5.000000
G00 X100.000538 Y-0.000018

G01 Z-1.000000 F100.0(Penetrate)
G01 X79.140038 Y-0.000018 Z-1.000000 F400.000000
G01 X38.717749 Y39.758250 Z-1.000000
G01 X16.071526 Y39.758250 Z-1.000000
G01 X16.071526 Y-0.000018 Z-1.000000
G01 X0.000013 Y-0.000018 Z-1.000000
G01 X0.000013 Y100.000089 Z-1.000000
G01 X33.847594 Y100.000089 Z-1.000000
G02 X44.775753 Y99.638807 Z-1.000000 I-0.000000 J-165.459649
G02 X52.110676 Y98.791223 Z-1.000000 I-4.983453 J-75.288070
G02 X59.241151 Y97.115272 Z-1.000000 I-7.465990 J-47.771271
G02 X65.260096 Y94.627350 Z-1.000000 I-11.539912 J-36.442792
G02 X71.286753 Y90.578727 Z-1.000000 I-15.104589 J-28.994093
G02 X75.487422 Y85.963807 Z-1.000000 I-15.611569 J-18.429483
G02 X78.157491 Y80.448664 Z-1.000000 I-14.308629 J-10.331204
G02 X79.221208 Y72.800597 Z-1.000000 I-26.962746 J-7.648068
G02 X77.441299 Y62.669924 Z-1.000000 I-29.720221 J-0.000000
G02 X72.646498 Y54.667601 Z-1.000000 I-22.983003 J8.333238
G02 X65.299176 Y48.613764 Z-1.000000 I-24.366334 J22.087026
G02 X54.545754 Y43.720645 Z-1.000000 I-26.210272 J43.338572
G01 X100.000538 Y-0.000018 Z-1.000000
G00 Z5.000000

(End cutting path id: text504)


(Start cutting path id: text504)
(Change tool to Cone cutter)

G00 Z5.000000
G00 X62.419171 Y71.860367

G01 Z-1.000000 F100.0(Penetrate)
G03 X61.914403 Y76.025351 Z-1.000000 I-17.435596 J-0.000000 F400.000000
G03 X60.552278 Y79.449361 Z-1.000000 I-13.061532 J-3.213137
G03 X58.322243 Y82.366176 Z-1.000000 I-9.928327 J-5.279763
G03 X54.545754 Y85.090738 Z-1.000000 I-12.383356 J-13.184891
G03 X50.928471 Y86.668787 Z-1.000000 I-9.866316 J-17.681179
G03 X46.266490 Y87.777107 Z-1.000000 I-9.213051 J-28.394196
G03 X41.458207 Y88.352085 Z-1.000000 I-8.425751 J-50.068531
G03 X34.983963 Y88.583018 Z-1.000000 I-6.474244 J-90.637527
G01 X16.071526 Y88.583018 Z-1.000000
G01 X16.071526 Y50.839525 Z-1.000000
G01 X32.305378 Y50.839525 Z-1.000000
G03 X39.906580 Y51.145818 Z-1.000000 I-0.000000 J94.471839
G03 X45.617136 Y51.914073 Z-1.000000 I-4.360737 J54.021881
G03 X51.048758 Y53.610080 Z-1.000000 I-5.380763 J26.778033
G03 X55.276277 Y56.077945 Z-1.000000 I-8.001781 J18.562128
G03 X58.530748 Y59.218165 Z-1.000000 I-12.595208 J16.310012
G03 X60.633448 Y62.525233 Z-1.000000 I-11.901691 J9.889336
G03 X61.895810 Y66.338862 Z-1.000000 I-13.880092 J6.710238
G03 X62.419171 Y71.860367 Z-1.000000 I-28.864488 J5.521504
G01 X62.419171 Y71.860367 Z-1.000000
G00 Z5.000000

(End cutting path id: text504)


(Footer)
M5
G00 X0.0000 Y0.0000
M2
(Using default footer. To add your own footer create file "footer" in the output dir.)
(end)
%