%
(Header)
(Generated by gcodetools from Inkscape.)
(Using default header. To add your own header create file "header" in the output dir.)
M3
(Header end.)
G21 (All units in mm)

(Start cutting path id: text545)
(Change tool to Cone cutter)

G00 Z5.000000
G00 X99.999855 Y29.293634

G01 Z-1.000000 F100.0(Penetrate)
G02 X99.157613 Y23.904395 Z-1.000000 I-17.663133 J0.000000 F400.000000
G02 X96.428431 Y18.146509 Z-1.000000 I-22.953998 J7.354223
G02 X92.377080 Y13.217753 Z-1.000000 I-21.793932 J13.784783
G02 X86.585242 Y8.814036 Z-1.000000 I-23.074159 J24.336886
G02 X79.371766 Y5.260090 Z-1.000000 I-26.021561 J43.718587
G02 X70.296070 Y2.333145 Z-1.000000 I-26.449000 J66.477328
G02 X60.978391 Y0.677300 Z-1.000000 I-16.197842 J64.103691
G02 X47.996453 Y0.000023 Z-1.000000 I-12.981938 J124.079346
G02 X34.018212 Y0.537157 Z-1.000000 I-0.000000 J182.151763
G02 X22.735170 Y1.944296 Z-1.000000 I9.235529 J119.994143
G02 X11.689773 Y4.304901 Z-1.000000 I25.596447 J146.788446
G02 X0.000015 Y7.712284 Z-1.000000 I42.583743 J167.848488
G01 X0.000015 Y23.784880 Z-1.000000
G01 X1.219525 Y23.784880 Z-1.000000
G03 X11.431180 Y18.558093 Z-1.000000 I37.248327 J60.183908
G03 X23.954681 Y14.387595 Z-1.000000 I35.795816 J86.601976
G03 X36.942862 Y11.845054 Z-1.000000 I28.516840 J111.228554
G03 X48.170670 Y11.082346 Z-1.000000 I11.227808 J82.260804
G03 X63.866661 Y12.479878 Z-1.000000 I0.000000 J88.841310
G03 X73.083522 Y15.554155 Z-1.000000 I-5.967078 J33.243125
G03 X79.991825 Y21.303283 Z-1.000000 I-8.729679 J17.514974
G03 X82.055633 Y27.478986 Z-1.000000 I-8.208124 J6.175703
G03 X80.813092 Y33.255292 Z-1.000000 I-14.047668 J0.000000
G03 X77.787347 Y36.941079 Z-1.000000 I-8.341271 J-3.762691
G03 X73.321072 Y39.333441 Z-1.000000 I-10.855934 J-14.901624
G03 X64.982489 Y41.672127 Z-1.000000 I-18.668274 J-50.526781
G03 X58.425921 Y42.815710 Z-1.000000 I-27.943863 J-140.844741
G03 X50.783906 Y43.810819 Z-1.000000 I-28.675153 J-190.371752
G02 X43.216067 Y44.733567 Z-1.000000 I39.689248 J357.002827
G02 X34.668949 Y45.949511 Z-1.000000 I60.597605 J456.600302
G02 X18.093116 Y50.215123 Z-1.000000 I14.013482 J88.794280
G02 X9.059234 Y55.217179 Z-1.000000 I11.134141 J30.767415
G02 X2.957528 Y62.873298 Z-1.000000 I13.761315 J17.226871
G02 X0.783986 Y72.391527 Z-1.000000 I19.754016 J9.518229
G02 X3.989466 Y82.632565 Z-1.000000 I17.962046 J-0.000000
G02 X14.547030 Y92.223039 Z-1.000000 I26.070021 J-18.092561
G02 X28.905083 Y97.737648 Z-1.000000 I25.719870 J-45.516372
G02 X49.477288 Y100.000103 Z-1.000000 I20.572204 J-92.398937
G02 X63.108613 Y99.472675 Z-1.000000 I0.000000 J-176.413856
G02 X74.564355 Y98.055837 Z-1.000000 I-9.760040 J-125.934819
G02 X85.886654 Y95.750289 Z-1.000000 I-30.216261 J-177.342892
G02 X94.773382 Y93.259981 Z-1.000000 I-26.500415 J-111.668827
G01 X94.773382 Y78.094708 Z-1.000000
G01 X93.553872 Y78.094708 Z-1.000000
G03 X85.829349 Y82.012433 Z-1.000000 I-24.871985 J-39.465711
G03 X74.041708 Y85.806962 Z-1.000000 I-35.052267 J-88.682967
G03 X61.920576 Y88.130292 Z-1.000000 I-24.229323 J-93.627220
G03 X49.390179 Y88.917787 Z-1.000000 I-12.530397 J-99.296289
G03 X35.847259 Y87.630657 Z-1.000000 I-0.000000 J-71.891471
G03 X27.090563 Y84.640403 Z-1.000000 I6.265625 J-32.665062
G03 X20.609205 Y79.212372 Z-1.000000 I8.651620 J-16.914054
G03 X18.728208 Y73.622896 Z-1.000000 I7.364204 J-5.589476
G03 X19.885109 Y68.142495 Z-1.000000 I13.559164 J-0.000000
G03 X22.909386 Y64.160802 Z-1.000000 I9.882896 J4.367125
G03 X27.478635 Y61.574100 Z-1.000000 I9.703833 J11.812224
G03 X37.630617 Y58.911284 Z-1.000000 I20.515455 J57.531525
G03 X43.214896 Y58.068895 Z-1.000000 I39.051308 J239.944422
G03 X53.484250 Y56.707783 Z-1.000000 I112.605718 J810.169648
G02 X63.742006 Y55.278997 Z-1.000000 I-50.003202 J-396.527051
G02 X70.905825 Y54.050619 Z-1.000000 I-29.679755 J-194.593983
G02 X84.799488 Y49.968052 Z-1.000000 I-15.400390 J-78.092644
G02 X92.682793 Y45.431040 Z-1.000000 I-11.557038 J-29.198324
G02 X97.971437 Y38.679165 Z-1.000000 I-11.224880 J-14.239478
G02 X99.999855 Y29.293634 Z-1.000000 I-20.699309 J-9.385531
G01 X99.999855 Y29.293634 Z-1.000000
G00 Z5.000000

(End cutting path id: text545)


(Footer)
M5
G00 X0.0000 Y0.0000
M2
(Using default footer. To add your own footer create file "footer" in the output dir.)
(end)
%