%
(Header)
(Generated by gcodetools from Inkscape.)
(Using default header. To add your own header create file "header" in the output dir.)
M3
(Header end.)
G21 (All units in mm)

(Start cutting path id: text610)
(Change tool to Cone cutter)

G00 Z5.000000
G00 X100.000162 Y88.180090

G01 Z-1.000000 F100.0(Penetrate)
G01 X57.844784 Y88.180090 Z-1.000000 F400.000000
G01 X57.844784 Y-0.000011 Z-1.000000
G01 X42.155377 Y-0.000011 Z-1.000000
G01 X42.155377 Y88.180090 Z-1.000000
G01 X0.000000 Y88.180090 Z-1.000000
G01 X0.000000 Y100.000118 Z-1.000000
G01 X100.000162 Y100.000118 Z-1.000000
G01 X100.000162 Y88.180090 Z-1.000000
G00 Z5.000000

(End cutting path id: text610)


(Footer)
M5
G00 X0.0000 Y0.0000
M2
(Using default footer. To add your own footer create file "footer" in the output dir.)
(end)
%