%
(Header)
(Generated by gcodetools from Inkscape.)
(Using default header. To add your own header create file "header" in the output dir.)
M3
(Header end.)
G21 (All units in mm)

(Start cutting path id: text617)
(Change tool to Cone cutter)

G00 Z5.000000
G00 X99.999349 Y41.381485

G01 Z-1.000000 F100.0(Penetrate)
G02 X99.118342 Y30.891571 Z-1.000000 I-62.890758 J-0.000000 F400.000000
G02 X96.849762 Y22.763114 Z-1.000000 I-39.852438 J6.741660
G02 X92.815220 Y15.609184 Z-1.000000 I-26.773254 J10.384459
G02 X86.701093 Y9.605255 Z-1.000000 I-24.752290 J19.091464
G02 X79.595188 Y5.380939 Z-1.000000 I-24.158656 J32.549590
G02 X70.953158 Y2.302642 Z-1.000000 I-21.000826 J45.287849
G02 X61.860011 Y0.650787 Z-1.000000 I-16.246938 J63.582385
G02 X49.955911 Y0.000018 Z-1.000000 I-11.904100 J108.551515
G02 X37.798342 Y0.690939 Z-1.000000 I0.000000 J107.308810
G02 X28.608711 Y2.434225 Z-1.000000 I7.173039 J62.905198
G02 X19.878141 Y5.618340 Z-1.000000 I13.615863 J50.894820
G02 X13.298218 Y9.605255 Z-1.000000 I15.315920 J32.700224
G02 X7.114578 Y15.694645 Z-1.000000 I20.743594 J27.249030
G02 X3.062061 Y22.631535 Z-1.000000 I23.075123 J18.132620
G02 X0.887961 Y30.434599 Z-1.000000 I34.288018 J13.757778
G02 X-0.000038 Y41.381485 Z-1.000000 I67.030364 J10.946886
G01 X-0.000038 Y99.999748 Z-1.000000
G01 X17.322691 Y99.999748 Z-1.000000
G01 X17.322691 Y40.723592 Z-1.000000
G03 X17.761103 Y32.828246 Z-1.000000 I71.312708 J-0.000000
G03 X18.722507 Y28.157836 Z-1.000000 I25.771694 J2.870949
G03 X20.667676 Y23.817983 Z-1.000000 I20.804807 J6.719089
G03 X23.621865 Y19.802596 Z-1.000000 I20.721227 J12.150542
G03 X27.918880 Y16.211289 Z-1.000000 I14.735637 J13.264903
G03 X34.033000 Y13.355244 Z-1.000000 I15.157576 J24.476342
G03 X40.781197 Y11.806790 Z-1.000000 I11.949030 J36.595511
G03 X49.955911 Y11.184196 Z-1.000000 I9.174714 J67.289223
G03 X59.221740 Y11.794086 Z-1.000000 I-0.000000 J70.691045
G03 X65.878823 Y13.289455 Z-1.000000 I-5.002473 J37.835692
G03 X71.992799 Y16.148407 Z-1.000000 I-9.014414 J27.244619
G03 X76.377447 Y19.802596 Z-1.000000 I-10.819089 J17.439443
G03 X79.288053 Y23.833687 Z-1.000000 I-16.323807 J14.852759
G03 X81.189316 Y28.355204 Z-1.000000 I-18.719026 J10.531700
G03 X82.239376 Y33.288912 Z-1.000000 I-27.826348 J8.500984
G03 X82.676621 Y40.394646 Z-1.000000 I-57.519529 J7.105734
G01 X82.676621 Y99.999748 Z-1.000000
G01 X99.999349 Y99.999748 Z-1.000000
G01 X99.999349 Y41.381485 Z-1.000000
G00 Z5.000000

(End cutting path id: text617)


(Footer)
M5
G00 X0.0000 Y0.0000
M2
(Using default footer. To add your own footer create file "footer" in the output dir.)
(end)
%