%
(Header)
(Generated by gcodetools from Inkscape.)
(Using default header. To add your own header create file "header" in the output dir.)
M3
(Header end.)
G21 (All units in mm)

(Start cutting path id: text654)
(Change tool to Cone cutter)

G00 Z5.000000
G00 X99.999711 Y99.999670

G01 Z-1.000000 F100.0(Penetrate)
G01 X59.792109 Y-0.000032 Z-1.000000 F400.000000
G01 X40.207594 Y-0.000032 Z-1.000000
G01 X-0.000007 Y99.999670 Z-1.000000
G01 X15.726952 Y99.999670 Z-1.000000
G01 X50.370770 Y12.021423 Z-1.000000
G01 X85.014590 Y99.999670 Z-1.000000
G01 X99.999711 Y99.999670 Z-1.000000
G00 Z5.000000

(End cutting path id: text654)


(Footer)
M5
G00 X0.0000 Y0.0000
M2
(Using default footer. To add your own footer create file "footer" in the output dir.)
(end)
%