%
(Header)
(Generated by gcodetools from Inkscape.)
(Using default header. To add your own header create file "header" in the output dir.)
M3
(Header end.)
G21 (All units in mm)

(Start cutting path id: text20)
(Change tool to Cone cutter)

G00 Z5.000000
G00 X100.194966 Y100.195193

G01 Z-1.000000 F100.0(Penetrate)
G01 X79.132798 Y-0.000298 Z-1.000000 F400.000000
G01 X66.996199 Y-0.000298 Z-1.000000
G01 X49.961417 Y83.170706 Z-1.000000
G01 X33.307609 Y-0.000299 Z-1.000000
G01 X21.443131 Y-0.000299 Z-1.000000
G01 X-0.000013 Y100.195190 Z-1.000000
G01 X11.048103 Y100.195190 Z-1.000000
G01 X28.082885 Y16.889605 Z-1.000000
G01 X44.845541 Y100.195191 Z-1.000000
G01 X55.784807 Y100.195192 Z-1.000000
G01 X72.710741 Y16.082120 Z-1.000000
G01 X89.636669 Y100.195193 Z-1.000000
G01 X100.194966 Y100.195193 Z-1.000000
G00 Z5.000000

(End cutting path id: text20)


(Footer)
M5
G00 X0.0000 Y0.0000
M2
(Using default footer. To add your own footer create file "footer" in the output dir.)
(end)
%