%
(Header)
(Generated by gcodetools from Inkscape.)
(Using default header. To add your own header create file "header" in the output dir.)
M3
(Header end.)
G21 (All units in mm)

(Start cutting path id: text36)
(Change tool to Cone cutter)

G00 Z5.000000
G00 X100.195374 Y100.195120

G01 Z-1.000000 F100.0(Penetrate)
G01 X59.579900 Y50.669549 Z-1.000000 F400.000000
G01 X100.116356 Y0.000047 Z-1.000000
G01 X82.021136 Y0.000047 Z-1.000000
G01 X49.939653 Y41.248925 Z-1.000000
G01 X17.067983 Y0.000047 Z-1.000000
G01 X0.000002 Y0.000047 Z-1.000000
G01 X41.010569 Y50.063940 Z-1.000000
G01 X0.948223 Y100.195120 Z-1.000000
G01 X18.964425 Y100.195120 Z-1.000000
G01 X50.650816 Y59.484563 Z-1.000000
G01 X83.048374 Y100.195120 Z-1.000000
G01 X100.195374 Y100.195120 Z-1.000000
G00 Z5.000000

(End cutting path id: text36)


(Footer)
M5
G00 X0.0000 Y0.0000
M2
(Using default footer. To add your own footer create file "footer" in the output dir.)
(end)
%