%
(Header)
(Generated by gcodetools from Inkscape.)
(Using default header. To add your own header create file "header" in the output dir.)
M3
(Header end.)
G21 (All units in mm)

(Start cutting path id: text47)
(Change tool to Cone cutter)

G00 Z5.000000
G00 X100.195517 Y100.195113

G01 Z-1.000000 F100.0(Penetrate)
G01 X58.126245 Y43.940541 Z-1.000000 F400.000000
G01 X58.126245 Y0.000069 Z-1.000000
G01 X42.229840 Y0.000069 Z-1.000000
G01 X42.229840 Y42.527449 Z-1.000000
G01 X0.000000 Y100.195113 Z-1.000000
G01 X17.582387 Y100.195113 Z-1.000000
G01 X50.258330 Y55.379869 Z-1.000000
G01 X83.255411 Y100.195113 Z-1.000000
G01 X100.195517 Y100.195113 Z-1.000000
G00 Z5.000000

(End cutting path id: text47)


(Footer)
M5
G00 X0.0000 Y0.0000
M2
(Using default footer. To add your own footer create file "footer" in the output dir.)
(end)
%