%
(Header)
(Generated by gcodetools from Inkscape.)
(Using default header. To add your own header create file "header" in the output dir.)
M3
(Header end.)
G21 (All units in mm)

(Start cutting path id: text55)
(Change tool to Cone cutter)

G00 Z5.000000
G00 X100.194630 Y0.000035

G01 Z-1.000000 F100.0(Penetrate)
G01 X-0.000007 Y0.000035 Z-1.000000 F400.000000
G01 X-0.000007 Y12.381426 Z-1.000000
G01 X78.724352 Y88.352037 Z-1.000000
G01 X2.931678 Y88.352037 Z-1.000000
G01 X2.931678 Y100.195109 Z-1.000000
G01 X98.297656 Y100.195109 Z-1.000000
G01 X98.297656 Y88.150167 Z-1.000000
G01 X18.797266 Y11.843105 Z-1.000000
G01 X100.194630 Y11.843105 Z-1.000000
G01 X100.194630 Y0.000035 Z-1.000000
G00 Z5.000000

(End cutting path id: text55)


(Footer)
M5
G00 X0.0000 Y0.0000
M2
(Using default footer. To add your own footer create file "footer" in the output dir.)
(end)
%